%
(Header)
(Generated by gcodetools from Inkscape.)
(Using default header. To add your own header create file "header" in the output dir.)
M3
(Header end.)
G21 (All units in mm)

(Start cutting path id: path41557)
(Change tool to Default tool)

G00 Z5.000000
G00 X185.250580 Y65.357730

G01 Z-0.125000 F100.0(Penetrate)
G02 X185.890170 Y65.399955 Z-0.125000 I0.346068 J-0.376855 F400.000000
G02 X185.945939 Y65.137721 Z-0.125000 I-0.112787 J-0.161033
G02 X185.602002 Y64.936405 Z-0.125000 I-0.355994 J0.213739
G02 X185.250580 Y65.357730 Z-0.125000 I-0.010132 J0.348770
G01 X185.250580 Y65.357730 Z-0.125000
G00 Z5.000000

(End cutting path id: path41557)


(Start cutting path id: path41557)
(Change tool to Default tool)

G00 Z5.000000
G00 X187.871000 Y67.594180

G01 Z-0.125000 F100.0(Penetrate)
G02 X190.045569 Y68.883521 Z-0.125000 I6.311178 J-8.165818 F400.000000
G02 X190.124004 Y68.757599 Z-0.125000 I0.030045 J-0.068674
G02 X188.116472 Y67.283542 Z-0.125000 I-11.764148 J13.917636
G02 X187.871000 Y67.594180 Z-0.125000 I-0.106558 J0.168103
G01 X187.871000 Y67.594180 Z-0.125000
G00 Z5.000000

(End cutting path id: path41557)


(Start cutting path id: path41557)
(Change tool to Default tool)

G00 Z5.000000
G00 X188.887630 Y65.050300

G01 Z-0.125000 F100.0(Penetrate)
G02 X187.792383 Y65.987673 Z-0.125000 I-0.379931 J0.664621 F400.000000
G02 X196.429390 Y78.452350 Z-0.125000 I29.602817 J-11.287633
G03 X195.398209 Y75.092308 Z-0.125000 I267.481269 J-83.926954
G01 X195.420320 Y75.085188 Z-0.125000
G02 X196.582094 Y78.459220 Z-0.125000 I65876.628155 J-22681.276552
G02 X197.776560 Y81.423460 Z-0.125000 I29.397919 J-10.123367
G03 X205.645717 Y89.904641 Z-0.125000 I-5.315074 J12.822765
G02 X206.604050 Y89.745260 Z-0.125000 I0.466852 J-0.153735
G03 X210.666980 Y92.732050 Z-0.125000 I-1.691003 J6.557069
G02 X215.842470 Y96.930460 Z-0.125000 I8.639180 J-5.360556
G02 X218.169317 Y99.244813 Z-0.125000 I10.021851 J-7.749073
G03 X224.325230 Y104.223260 Z-0.125000 I-88.322994 J115.507661
G02 X234.679407 Y110.101187 Z-0.125000 I11.011931 J-7.339318
G02 X247.149110 Y110.292106 Z-0.125000 I9.007584 J-181.002954
G03 X254.794043 Y112.511620 Z-0.125000 I0.255930 J13.394401
G03 X257.619800 Y120.840230 Z-0.125000 I-3.958514 J5.986728
G02 X252.413448 Y123.216257 Z-0.125000 I12.782724 J34.901610
G02 X252.479100 Y123.703148 Z-0.125000 I0.127577 J0.230669
G02 X254.936743 Y124.174863 Z-0.125000 I6.189656 J-25.610137
G03 X260.395960 Y126.232330 Z-0.125000 I-1.907910 J13.333778
G03 X256.283510 Y136.754184 Z-0.125000 I-28.900186 J-5.230993
G02 X251.025380 Y145.454990 Z-0.125000 I190.463278 J121.041268
G02 X247.355494 Y148.045562 Z-0.125000 I2.150976 J6.941864
G02 X244.053110 Y154.954540 Z-0.125000 I15.743809 J11.769030
G02 X243.966044 Y155.230003 Z-0.125000 I0.984270 J0.462590
G02 X243.025638 Y161.916364 Z-0.125000 I100.211589 J17.503624
G02 X243.303254 Y162.020692 Z-0.125000 I0.152291 J0.016286
G02 X244.473240 Y159.492980 Z-0.125000 I-6.403666 J-4.498653
G02 X249.334177 Y155.221661 Z-0.125000 I-2.260495 J-7.474169
G03 X254.399760 Y155.194750 Z-0.125000 I2.538929 J1.141878
G03 X256.988673 Y163.137474 Z-0.125000 I-10.931053 J7.956239
G03 X255.926645 Y173.815590 Z-0.125000 I-53.672902 J0.053654
G03 X253.327020 Y184.952624 Z-0.125000 I-186.544054 J-37.671495
G02 X251.913160 Y194.426180 Z-0.125000 I41.707484 J11.066826
G02 X250.495578 Y214.740879 Z-0.125000 I303.016092 J31.351608
G02 X250.613820 Y242.418280 Z-0.125000 I341.482841 J12.380085
G02 X252.344763 Y228.666375 Z-0.125000 I-233.103108 J-36.325415
G02 X252.042410 Y215.894020 Z-0.125000 I-53.337845 J-5.127120
G03 X258.006091 Y237.991875 Z-0.125000 I-59.667502 J27.956483
G02 X261.531790 Y260.928520 Z-0.125000 I182.149389 J-16.259734
G03 X261.459344 Y270.916411 Z-0.125000 I-107.488599 J4.214553
G02 X261.313915 Y275.742490 Z-0.125000 I102.282188 J5.497401
G02 X262.118102 Y276.861050 Z-0.125000 I1.169347 J0.007664
G02 X263.650630 Y276.298990 Z-0.125000 I0.410888 J-1.250008
G02 X264.170089 Y284.378473 Z-0.125000 I428.291811 J-23.479993
G02 X264.284623 Y284.376486 Z-0.125000 I0.057211 J-0.004221
G03 X264.803368 Y280.565339 Z-0.125000 I19.981780 J0.778896
G03 X266.572950 Y280.416190 Z-0.125000 I0.909148 J0.214408
G03 X268.041649 Y281.432110 Z-0.125000 I0.224667 J1.244799
G03 X269.543811 Y292.256368 Z-0.125000 I-122.032762 J22.451755
G03 X270.400547 Y303.636310 Z-0.125000 I-303.751837 J28.590083
G02 X270.969320 Y309.700380 Z-0.125000 I82.014356 J-4.633745
G02 X272.558248 Y317.923307 Z-0.125000 I349.982570 J-63.362645
G02 X272.657133 Y317.907171 Z-0.125000 I0.049112 J-0.010091
G02 X271.782314 Y310.906448 Z-0.125000 I-1010.698441 J122.743054
G03 X271.641120 Y304.683590 Z-0.125000 I29.425937 J-3.780692
G02 X275.234049 Y316.372985 Z-0.125000 I131.714513 J-34.087768
G02 X276.244669 Y318.269366 Z-0.125000 I6.932262 J-2.476861
G02 X276.601360 Y318.121592 Z-0.125000 I0.160002 J-0.118164
G02 X274.447440 Y307.998070 Z-0.125000 I-85.030870 J12.800597
G02 X273.496462 Y299.557226 Z-0.125000 I-30.446023 J-0.843828
G03 X269.765134 Y284.812224 Z-0.125000 I1738.587063 J-447.806553
G03 X267.016215 Y271.283559 Z-0.125000 I155.273417 J-38.593949
G03 X268.724580 Y269.540790 Z-0.125000 I1.500341 J-0.237982
G03 X281.138154 Y282.992410 Z-0.125000 I-202.100620 J198.958374
G02 X292.003850 Y295.052690 Z-0.125000 I302.018759 J-261.178612
G03 X293.998296 Y308.571436 Z-0.125000 I-23.123954 J10.318016
G02 X295.398490 Y321.946610 Z-0.125000 I29.127681 J3.711616
G03 X287.989455 Y350.966284 Z-0.125000 I-56.565950 J1.013744
G03 X268.156460 Y372.506610 Z-0.125000 I-56.694966 J-32.300547
G03 X265.105796 Y377.283237 Z-0.125000 I-29.147031 J-15.252701
G03 X262.524179 Y379.887850 Z-0.125000 I-11.543216 J-8.859580
G03 X261.546295 Y379.632292 Z-0.125000 I-0.391462 J-0.500781
G03 X261.416040 Y376.163630 Z-0.125000 I4.563071 J-1.908129
G02 X257.707369 Y384.373970 Z-0.125000 I19.469669 J13.737381
G02 X257.889409 Y385.541165 Z-0.125000 I1.515622 J0.361411
G03 X257.923728 Y386.577725 Z-0.125000 I-0.908480 J0.548927
G03 X253.240110 Y393.008630 Z-0.125000 I-23.313398 J-12.058123
G02 X248.885492 Y395.955506 Z-0.125000 I1.208204 J6.476232
G03 X230.774360 Y410.932040 Z-0.125000 I-32.076692 J-20.351196
G03 X223.285294 Y412.054186 Z-0.125000 I-17.002734 J-87.922582
G03 X222.358634 Y411.888834 Z-0.125000 I-0.179049 J-1.675836
G03 X222.196635 Y411.202938 Z-0.125000 I0.202933 J-0.410008
G02 X223.270110 Y409.653020 Z-0.125000 I-18.087717 J-13.674273
G03 X214.760908 Y409.629925 Z-0.125000 I-4.224650 J-11.046775
G03 X208.294025 Y405.989778 Z-0.125000 I9.498922 J-24.439682
G03 X208.552999 Y404.741921 Z-0.125000 I0.430912 J-0.561372
G03 X216.247390 Y405.053490 Z-0.125000 I3.317200 J13.244339
G02 X223.939719 Y404.235815 Z-0.125000 I2.220453 J-15.702818
G02 X228.912136 Y401.880025 Z-0.125000 I-10.541045 J-28.674803
G02 X228.759974 Y401.443384 Z-0.125000 I-0.119722 J-0.203112
G02 X220.353510 Y403.616600 Z-0.125000 I5.207883 J37.490817
G03 X207.829819 Y400.853907 Z-0.125000 I-1.838324 J-21.433819
G03 X201.975756 Y395.036696 Z-0.125000 I7.900167 J-13.804393
G03 X197.729473 Y386.000852 Z-0.125000 I49.793978 J-28.915730
G02 X191.745200 Y374.572330 Z-0.125000 I-46.746809 J17.196830
G03 X182.247392 Y339.256153 Z-0.125000 I142.600005 J-57.285585
G03 X177.260510 Y304.448860 Z-0.125000 I15161.429440 J-2189.956705
G02 X175.694918 Y295.837851 Z-0.125000 I-58.255103 J6.143699
G02 X173.323058 Y287.835763 Z-0.125000 I-120.459762 J31.352337
G02 X172.962131 Y287.904650 Z-0.125000 I-0.175852 J0.058605
G02 X174.037090 Y295.715100 Z-0.125000 I48.484483 J-2.693761
G03 X173.424908 Y295.950635 Z-0.125000 I-0.326756 J0.064058
G03 X171.281566 Y292.242204 Z-0.125000 I108.439276 J-65.147653
G02 X170.727212 Y292.115869 Z-0.125000 I-0.333843 J0.185482
G02 X170.283750 Y293.392390 Z-0.125000 I0.670587 J0.948250
G02 X170.291277 Y300.252306 Z-0.125000 I80.928705 J3.341163
G02 X171.224190 Y304.364240 Z-0.125000 I11.787608 J-0.512569
G03 X177.053071 Y315.544441 Z-0.125000 I-15.810550 J15.352514
G03 X177.446270 Y328.912510 Z-0.125000 I-40.942007 J7.894056
G02 X171.689620 Y327.770760 Z-0.125000 I-9.408005 J32.351474
G03 X169.495450 Y325.298370 Z-0.125000 I0.266715 J-2.446525
G02 X168.175890 Y327.800613 Z-0.125000 I4.415864 J3.927767
G03 X167.391915 Y328.733684 Z-0.125000 I-1.345171 J-0.334339
G03 X166.604168 Y328.576872 Z-0.125000 I-0.282485 J-0.637967
G03 X162.264380 Y323.157950 Z-0.125000 I29.368221 J-27.967017
G03 X156.706973 Y317.524622 Z-0.125000 I3.169896 J-8.685094
G03 X153.434199 Y306.516130 Z-0.125000 I114.360106 J-39.989473
G02 X151.754757 Y302.171793 Z-0.125000 I-17.807004 J4.387077
G02 X150.284870 Y302.436450 Z-0.125000 I-0.691374 J0.374308
G03 X150.986594 Y283.218426 Z-0.125000 I44.348811 J-8.002477
G02 X152.972610 Y275.423730 Z-0.125000 I-1913.331566 J-491.649344
G03 X153.633614 Y273.866581 Z-0.125000 I2.585257 J0.178562
G02 X153.986380 Y271.221490 Z-0.125000 I-1.751208 J-1.579621
G02 X156.034094 Y270.960921 Z-0.125000 I0.619510 J-3.307901
G02 X156.124495 Y270.548908 Z-0.125000 I-0.112797 J-0.240674
G03 X155.507587 Y269.517009 Z-0.125000 I2.854154 J-2.406676
G03 X156.120730 Y268.210050 Z-0.125000 I0.921520 J-0.364985
G03 X156.499594 Y263.165112 Z-0.125000 I24.725954 J-0.679829
G02 X156.158330 Y257.986600 Z-0.125000 I-10.606206 J-1.901552
G02 X155.592735 Y251.081532 Z-0.125000 I-49.428320 J0.572979
G02 X155.302213 Y251.070909 Z-0.125000 I-0.146274 J0.022386
G02 X154.903070 Y253.829556 Z-0.125000 I16.734598 J3.829491
G02 X154.800320 Y261.403830 Z-0.125000 I77.407835 J4.837922
G03 X152.936737 Y265.007782 Z-0.125000 I-6.031358 J-0.834981
G02 X150.533575 Y267.275424 Z-0.125000 I454.383374 J483.945739
G02 X150.542968 Y268.149640 Z-0.125000 I0.410386 J0.432749
G02 X152.889960 Y268.963090 Z-0.125000 I2.125503 J-2.340037
G03 X149.229280 Y271.446741 Z-0.125000 I-5.083511 J-3.553057
G02 X142.717240 Y275.329370 Z-0.125000 I2.885335 J12.241744
G02 X140.065845 Y298.648529 Z-0.125000 I53.611617 J17.905968
G03 X136.720100 Y322.035630 Z-0.125000 I-49.871639 J4.798263
G02 X138.643239 Y332.136666 Z-0.125000 I14.368876 J2.497898
G02 X146.177841 Y341.982031 Z-0.125000 I50.558380 J-30.886265
G02 X156.443261 Y351.127050 Z-0.125000 I58.785970 J-55.654073
G03 X156.374100 Y351.241630 Z-0.125000 I-0.040309 J0.053832
G03 X159.676505 Y354.502889 Z-0.125000 I-2.429698 J5.763017
G03 X159.535288 Y355.734633 Z-0.125000 I-1.132231 J0.494159
G02 X159.298944 Y356.863615 Z-0.125000 I1.101505 J0.819821
G02 X161.331160 Y359.066500 Z-0.125000 I2.948683 J-0.681406
G02 X163.783520 Y363.972251 Z-0.125000 I5.326823 J0.402985
G03 X164.983980 Y368.067860 Z-0.125000 I-1.746349 J2.735607
G03 X164.953148 Y371.003855 Z-0.125000 I-9.562954 J1.367734
G03 X164.656520 Y371.059871 Z-0.125000 I-0.158529 J-0.026082
G03 X163.939460 Y369.476944 Z-0.125000 I6.741597 J-4.007796
G03 X163.012930 Y365.850280 Z-0.125000 I27.741800 J-9.019080
G03 X161.435923 Y365.231962 Z-0.125000 I-0.549211 J-0.919468
G02 X160.149080 Y363.814790 Z-0.125000 I-2.102068 J0.615918
G02 X162.670920 Y370.840210 Z-0.125000 I4.797228 J2.243319
G03 X164.053370 Y374.310090 Z-0.125000 I-1.180293 J2.480580
G02 X158.337004 Y368.695470 Z-0.125000 I-50.052208 J45.241955
G03 X148.959280 Y351.275440 Z-0.125000 I18.454611 J-21.168839
G02 X151.939701 Y365.065114 Z-0.125000 I51.659117 J-3.948385
G02 X157.414400 Y373.385470 Z-0.125000 I20.304378 J-7.398724
G03 X161.003476 Y379.746287 Z-0.125000 I-2.250106 J5.462590
G03 X157.491839 Y391.611165 Z-0.125000 I-45.392129 J-6.982561
G03 X153.374957 Y396.874567 Z-0.125000 I-12.770902 J-5.747277
G03 X151.108860 Y395.603690 Z-0.125000 I-0.869202 J-1.105903
G03 X151.450561 Y394.940630 Z-0.125000 I2.365527 J0.799472
G01 X151.535011 Y394.979274 Z-0.125000
G02 X148.541046 Y411.297154 Z-0.125000 I158.130703 J37.447045
G02 X151.948450 Y421.970300 Z-0.125000 I13.056542 J1.712176
G02 X155.228813 Y430.994798 Z-0.125000 I13.624275 J0.156087
G02 X162.770516 Y438.670720 Z-0.125000 I60.266493 J-51.669814
G03 X170.326013 Y446.071934 Z-0.125000 I-72.158046 J81.219336
G03 X171.694460 Y451.978680 Z-0.125000 I-4.481621 J4.150171
G03 X175.824194 Y451.143815 Z-0.125000 I2.567664 J2.069701
G02 X184.305960 Y455.614610 Z-0.125000 I272.591136 J-506.865153
G03 X196.746419 Y460.928665 Z-0.125000 I-4.453877 J27.645627
G02 X208.817450 Y468.251620 Z-0.125000 I41.679816 J-55.093958
G03 X211.895495 Y468.989649 Z-0.125000 I-0.058538 J7.031843
G03 X216.620158 Y471.676133 Z-0.125000 I-22.177295 J44.500577
G03 X220.913217 Y474.831899 Z-0.125000 I-23.194049 J36.050840
G03 X220.813070 Y475.165340 Z-0.125000 I-0.121409 J0.145295
G03 X225.203662 Y476.772808 Z-0.125000 I-1.193521 J10.059849
G03 X232.013310 Y482.050233 Z-0.125000 I-31.489860 J47.664563
G03 X238.070482 Y488.391631 Z-0.125000 I-40.010471 J44.280710
G03 X239.690980 Y491.606580 Z-0.125000 I-6.309376 J5.196128
G03 X238.556835 Y494.013175 Z-0.125000 I-1.796686 J0.623823
G03 X236.239151 Y494.067143 Z-0.125000 I-1.236975 J-3.328464
G03 X235.701731 Y493.111162 Z-0.125000 I0.244990 J-0.766775
G03 X237.867230 Y490.927890 Z-0.125000 I2.887290 J0.698214
G03 X236.664072 Y489.750563 Z-0.125000 I0.386411 J-1.598331
G02 X236.411711 Y489.105179 Z-0.125000 I-2.948662 J0.780965
G02 X235.869283 Y488.756866 Z-0.125000 I-0.580102 J0.306875
G02 X229.789150 Y489.012260 Z-0.125000 I-1.759858 J30.605416
G02 X230.629047 Y487.245555 Z-0.125000 I-0.462339 J-1.302795
G02 X229.795536 Y486.764136 Z-0.125000 I-0.699767 J0.249286
G02 X228.745546 Y487.930898 Z-0.125000 I0.231363 J1.264041
G02 X230.909920 Y493.609770 Z-0.125000 I7.115003 J0.540165
G03 X232.015031 Y492.132590 Z-0.125000 I2.001322 J0.345265
G03 X232.310959 Y492.339955 Z-0.125000 I0.090979 J0.185005
G03 X231.526357 Y493.275592 Z-0.125000 I-1.092280 J-0.119166
G03 X227.478140 Y492.389210 Z-0.125000 I-1.211641 J-4.153831
G02 X227.135088 Y490.997789 Z-0.125000 I-1.304790 J-0.416307
G02 X223.798400 Y488.129340 Z-0.125000 I-22.600435 J22.914777
G02 X222.370624 Y487.795673 Z-0.125000 I-0.978789 J0.966690
G02 X222.070795 Y488.402835 Z-0.125000 I0.157182 J0.455231
G02 X223.235600 Y490.900959 Z-0.125000 I11.362471 J-3.777381
G02 X224.904150 Y492.438900 Z-0.125000 I3.565408 J-2.194104
G03 X220.158370 Y490.268253 Z-0.125000 I2.089954 J-10.842633
G03 X217.119760 Y487.134640 Z-0.125000 I10.169340 J-12.901082
G03 X216.996320 Y489.284689 Z-0.125000 I-1.889183 J0.970105
G03 X216.225636 Y489.365425 Z-0.125000 I-0.418896 J-0.279924
G03 X212.558968 Y485.726326 Z-0.125000 I207.830400 J-213.071640
G02 X211.766710 Y486.170920 Z-0.125000 I-0.334819 J0.331551
G02 X210.811976 Y484.686423 Z-0.125000 I-2.052229 J0.270603
G02 X208.915216 Y483.820930 Z-0.125000 I-4.239323 J6.779471
G02 X208.700944 Y484.067680 Z-0.125000 I-0.052376 J0.170928
G02 X210.260370 Y486.009040 Z-0.125000 I4.768166 J-2.233103
G02 X211.603890 Y489.804021 Z-0.125000 I10.112201 J-1.444666
G03 X210.639830 Y491.951690 Z-0.125000 I-1.232967 J0.736749
G02 X207.864666 Y490.441314 Z-0.125000 I-2.878286 J1.983832
G02 X205.475588 Y490.794504 Z-0.125000 I-0.203128 J6.882794
G02 X205.399778 Y491.176494 Z-0.125000 I0.071188 J0.212645
G02 X206.841250 Y491.592740 Z-0.125000 I1.170076 J-1.347954
G03 X208.312717 Y493.841369 Z-0.125000 I-0.613673 J2.007344
G03 X207.657186 Y495.190106 Z-0.125000 I-2.251245 J-0.260506
G02 X207.728312 Y495.301016 Z-0.125000 I0.047438 J0.047840
G02 X209.369350 Y494.556370 Z-0.125000 I-4.753914 J-12.657158
G02 X209.909815 Y496.983432 Z-0.125000 I19.580696 J-3.086581
G02 X210.142466 Y496.990846 Z-0.125000 I0.117528 J-0.034034
G03 X211.162167 Y495.962300 Z-0.125000 I1.615136 J0.581507
G03 X216.307490 Y496.441890 Z-0.125000 I2.072633 J5.604387
G02 X213.542616 Y497.594679 Z-0.125000 I-0.672536 J2.279036
G03 X210.661600 Y499.235660 Z-0.125000 I-2.751401 J-1.481002
G02 X211.247082 Y501.065328 Z-0.125000 I1.238919 J0.612063
G02 X216.887781 Y503.677511 Z-0.125000 I24.987840 J-46.561966
G02 X219.572613 Y504.451093 Z-0.125000 I5.431620 J-13.805414
G02 X219.672400 Y504.138370 Z-0.125000 I0.030618 J-0.162512
G03 X220.503341 Y503.320669 Z-0.125000 I0.947803 J0.132102
G03 X225.069151 Y503.284158 Z-0.125000 I2.441751 J19.845392
G03 X227.276614 Y504.255904 Z-0.125000 I-0.422244 J3.952348
G03 X227.240190 Y506.059150 Z-0.125000 I-0.781869 J0.886198
G03 X233.832395 Y504.933722 Z-0.125000 I6.167208 J16.254810
G03 X236.250539 Y505.423983 Z-0.125000 I-0.172643 J7.060251
G03 X236.240578 Y505.901103 Z-0.125000 I-0.093346 J0.236715
G03 X231.931760 Y506.462680 Z-0.125000 I-3.509855 J-10.119154
G03 X231.424481 Y507.991963 Z-0.125000 I-1.209331 J0.447629
G03 X228.556986 Y509.338996 Z-0.125000 I-6.335563 J-9.761218
G03 X226.016172 Y509.678659 Z-0.125000 I-2.261420 J-7.243347
G03 X225.716670 Y509.009820 Z-0.125000 I0.015040 J-0.408212
G02 X225.990123 Y507.273584 Z-0.125000 I-1.651642 J-1.149782
G02 X225.504398 Y506.975630 Z-0.125000 I-0.411064 J0.125225
G03 X224.245716 Y506.757763 Z-0.125000 I-0.327193 J-1.854525
G03 X222.868500 Y504.220360 Z-0.125000 I1.352626 J-2.376614
G03 X222.261834 Y505.894335 Z-0.125000 I-0.758073 J0.672185
G03 X218.524821 Y505.950411 Z-0.125000 I-2.074936 J-13.728854
G02 X215.601419 Y505.830065 Z-0.125000 I-2.223254 J18.439227
G02 X215.401730 Y506.650570 Z-0.125000 I0.016545 J0.438578
G03 X216.115619 Y507.939291 Z-0.125000 I-0.347368 J1.034515
G03 X215.211361 Y508.773355 Z-0.125000 I-1.074099 J-0.257282
G03 X210.604973 Y509.322004 Z-0.125000 I-9.954090 J-63.961580
G02 X204.840290 Y510.106810 Z-0.125000 I4.570826 J55.138643
G03 X203.775301 Y506.199096 Z-0.125000 I30.693500 J-10.464031
G03 X203.947281 Y504.279791 Z-0.125000 I3.267566 J-0.674566
G03 X205.004138 Y503.573624 Z-0.125000 I1.045157 J0.420259
G03 X209.143710 Y504.599600 Z-0.125000 I-0.096093 J9.251805
G02 X205.110391 Y501.997720 Z-0.125000 I-6.006244 J4.883538
G02 X202.625408 Y502.218655 Z-0.125000 I-0.936432 J3.552891
G02 X201.650859 Y503.744120 Z-0.125000 I0.709958 J1.527589
G02 X203.251770 Y507.401310 Z-0.125000 I4.963480 J0.006258
G02 X199.286560 Y507.626290 Z-0.125000 I-1.175405 J14.339154
G02 X199.265244 Y507.921501 Z-0.125000 I0.029752 J0.150523
G03 X200.133451 Y508.595833 Z-0.125000 I-0.579725 J1.642478
G03 X199.598380 Y509.677910 Z-0.125000 I-0.578898 J0.387075
G02 X194.086567 Y509.962215 Z-0.125000 I-2.472983 J5.627190
G03 X191.492130 Y511.325260 Z-0.125000 I-21.697515 J-38.148660
G02 X190.934979 Y511.414662 Z-0.125000 I0.139312 J2.648972
G01 X190.940869 Y511.461789 Z-0.125000
G03 X193.817387 Y511.544400 Z-0.125000 I-2.090710 J122.920427
G03 X196.712640 Y511.936980 Z-0.125000 I-0.626483 J15.492698
G03 X179.912538 Y514.733079 Z-0.125000 I-24.214918 J-93.624103
G02 X161.453420 Y520.200290 Z-0.125000 I3.520753 J45.782893
G02 X156.425101 Y524.910964 Z-0.125000 I6.307995 J11.772378
G02 X157.078721 Y526.071990 Z-0.125000 I0.644658 J0.401575
G02 X161.887541 Y525.192673 Z-0.125000 I-0.171434 J-14.526459
G02 X173.976160 Y518.989750 Z-0.125000 I-18.803540 J-51.526407
G03 X192.797728 Y516.674403 Z-0.125000 I67.476107 J470.858239
G03 X212.215970 Y515.720790 Z-0.125000 I18.630244 J181.182264
G03 X202.015293 Y518.425797 Z-0.125000 I-7.364831 J-7.186978
G02 X189.482020 Y521.604820 Z-0.125000 I-3.538795 J12.344006
G02 X186.292371 Y522.110811 Z-0.125000 I-0.599374 J6.528088
G02 X186.291038 Y522.586366 Z-0.125000 I0.102399 J0.238067
G02 X188.562823 Y523.148544 Z-0.125000 I2.781023 J-6.366957
G02 X194.033300 Y522.435690 Z-0.125000 I1.003095 J-13.648982
G02 X203.734887 Y521.704828 Z-0.125000 I3.934148 J-12.533151
G03 X214.309980 Y520.340950 Z-0.125000 I7.302884 J14.944370
G03 X214.515517 Y520.806187 Z-0.125000 I0.027963 J0.265667
G03 X213.254794 Y521.492464 Z-0.125000 I-2.104865 J-2.365594
G03 X207.524414 Y522.932857 Z-0.125000 I-33.386468 J-120.703961
G03 X202.775730 Y523.845200 Z-0.125000 I-16.254024 J-71.786626
G02 X186.955299 Y531.217186 Z-0.125000 I14.368633 J51.496855
G02 X172.626040 Y548.753640 Z-0.125000 I22.688012 J33.161199
G03 X174.867243 Y545.597597 Z-0.125000 I47.306591 J31.220071
G03 X184.160561 Y535.452475 Z-0.125000 I60.881719 J46.440894
G03 X194.216905 Y528.166661 Z-0.125000 I37.344836 J40.962609
G03 X205.473320 Y525.438620 Z-0.125000 I10.426633 J18.435192
G02 X213.802992 Y524.959582 Z-0.125000 I1.030492 J-54.740478
G03 X223.517111 Y524.683151 Z-0.125000 I6.165200 J45.831534
G03 X228.339150 Y527.241996 Z-0.125000 I-0.524223 J6.810766
G03 X229.014130 Y534.156040 Z-0.125000 I-5.002230 J3.978310
G02 X234.684112 Y540.953923 Z-0.125000 I10.362102 J-2.879276
G03 X243.730394 Y545.999146 Z-0.125000 I-39.469977 J81.403981
G03 X245.883309 Y550.308187 Z-0.125000 I-2.506254 J3.944542
G03 X240.657040 Y558.594930 Z-0.125000 I-10.483236 J-0.820131
G03 X237.029901 Y578.055336 Z-0.125000 I-76.113152 J-4.118169
G02 X237.698870 Y593.716280 Z-0.125000 I21.317266 J6.934176
G03 X253.865335 Y594.235261 Z-0.125000 I5.738023 J73.313750
G03 X255.877123 Y595.507119 Z-0.125000 I-0.412516 J2.879526
G03 X255.422519 Y596.992470 Z-0.125000 I-0.838051 J0.555751
G03 X244.942550 Y599.432750 Z-0.125000 I-12.684714 J-30.751820
G02 X249.869746 Y603.841454 Z-0.125000 I78.636782 J-82.927304
G02 X250.224734 Y603.649760 Z-0.125000 I0.139802 J-0.165646
G03 X250.661022 Y602.413297 Z-0.125000 I1.466996 J-0.177572
G03 X257.147280 Y599.931020 Z-0.125000 I6.127023 J6.294555
G03 X266.406367 Y597.866830 Z-0.125000 I17.815927 J58.116477
G03 X277.493486 Y596.953021 Z-0.125000 I13.278158 J93.385919
G03 X278.052367 Y598.091861 Z-0.125000 I0.016232 J0.698589
G03 X272.818530 Y601.615790 Z-0.125000 I-8.381728 J-6.800091
G02 X260.254683 Y604.636147 Z-0.125000 I26.945983 J139.729051
G02 X259.259765 Y605.199201 Z-0.125000 I0.685445 J2.371721
G02 X259.387372 Y605.459575 Z-0.125000 I0.103072 J0.110942
G02 X271.346500 Y602.921070 Z-0.125000 I-21.343924 J-129.992694
G02 X278.912751 Y601.524676 Z-0.125000 I-4.982114 J-48.191956
G03 X280.050483 Y601.954581 Z-0.125000 I0.269844 J1.006306
G03 X280.452943 Y603.390710 Z-0.125000 I-2.017326 J1.339791
G02 X280.656820 Y614.831630 Z-0.125000 I99.289514 J3.952935
G02 X290.009722 Y629.642299 Z-0.125000 I38.691389 J-14.075017
G02 X302.810140 Y641.679930 Z-0.125000 I162.747393 J-160.235601
G02 X341.710441 Y663.116845 Z-0.125000 I86.278665 J-110.551290
G02 X386.245170 Y668.163566 Z-0.125000 I32.957909 J-91.815227
G02 X402.781113 Y665.904247 Z-0.125000 I-1.968334 J-76.049137
G02 X404.771400 Y662.444768 Z-0.125000 I-0.674674 J-2.690409
G03 X411.484012 Y658.216111 Z-0.125000 I15.396476 J16.998356
G03 X412.032000 Y658.769742 Z-0.125000 I0.159575 J0.390068
G02 X410.785316 Y662.150701 Z-0.125000 I36.667923 J15.441139
G02 X412.299960 Y663.401907 Z-0.125000 I1.008990 J0.320947
G02 X427.701782 Y650.263055 Z-0.125000 I-47.542473 J-71.327653
G02 X434.571230 Y640.515970 Z-0.125000 I-33.203939 J-30.695354
G03 X454.211159 Y620.891862 Z-0.125000 I340.889858 J321.524741
G03 X472.881720 Y604.047000 Z-0.125000 I404.158024 J429.192452
G02 X481.925418 Y565.929991 Z-0.125000 I-41.311413 J-29.932973
G02 X468.181560 Y530.042790 Z-0.125000 I-93.334602 J15.169339
G03 X486.957741 Y503.916156 Z-0.125000 I201.352464 J124.893902
G03 X511.284780 Y486.427100 Z-0.125000 I45.517560 J37.650489
G03 X540.090381 Y484.720351 Z-0.125000 I16.043552 J26.838351
G02 X544.635310 Y486.548430 Z-0.125000 I26.311991 J-58.852494
G03 X563.764176 Y505.841406 Z-0.125000 I-20.318225 J39.274959
G02 X565.108980 Y505.394520 Z-0.125000 I0.639077 J-0.323726
G02 X565.858669 Y507.453894 Z-0.125000 I3.553142 J-0.127332
G02 X568.752486 Y510.382304 Z-0.125000 I13.901327 J-10.843095
G02 X571.960165 Y512.197178 Z-0.125000 I7.247434 J-9.067270
G02 X573.596510 Y511.739660 Z-0.125000 I0.503165 J-1.355407
G02 X573.299579 Y499.369827 Z-0.125000 I-15.242290 J-5.822598
G02 X564.703860 Y487.541369 Z-0.125000 I-31.312709 J13.717414
G02 X551.209582 Y479.060138 Z-0.125000 I-32.099194 J36.096415
G02 X537.454810 Y476.569560 Z-0.125000 I-12.545839 J30.060011
G03 X524.861863 Y471.464518 Z-0.125000 I2.006535 J-23.034106
G02 X520.028240 Y473.063880 Z-0.125000 I-1.906654 J2.341489
G03 X522.278639 Y476.298581 Z-0.125000 I-0.654414 J2.855437
G03 X520.360814 Y478.298091 Z-0.125000 I-2.316597 J-0.302464
G03 X505.624240 Y480.622586 Z-0.125000 I-84.432597 J-487.401553
G02 X496.893270 Y484.541990 Z-0.125000 I2.434766 J17.108124
G02 X486.038920 Y492.224334 Z-0.125000 I88.854171 J137.050864
G03 X479.159890 Y496.791234 Z-0.125000 I-35.746428 J-46.379813
G03 X478.254400 Y496.000468 Z-0.125000 I-0.314032 J-0.554220
G03 X484.009670 Y486.028400 Z-0.125000 I37.509740 J15.001507
G02 X483.685886 Y485.764846 Z-0.125000 I-0.167387 J-0.125027
G02 X478.545300 Y491.726675 Z-0.125000 I221.255520 J195.974678
G03 X476.047833 Y493.893517 Z-0.125000 I-8.052250 J-6.758203
G03 X475.300810 Y493.107890 Z-0.125000 I-0.292451 J-0.469891
G03 X481.113987 Y484.482930 Z-0.125000 I29.660915 J13.719796
G03 X489.013453 Y476.070355 Z-0.125000 I3897.425925 J3651.794128
G02 X488.717685 Y475.656810 Z-0.125000 I-0.188704 J-0.177578
G02 X483.913230 Y478.574280 Z-0.125000 I9.717745 J21.417763
G03 X490.343307 Y470.316082 Z-0.125000 I11.983731 J2.698465
G03 X499.966081 Y467.281376 Z-0.125000 I14.001121 J27.622452
G03 X512.059139 Y466.458760 Z-0.125000 I11.599262 J81.217961
G02 X514.448170 Y464.801310 Z-0.125000 I0.015219 J-2.528550
G02 X504.799208 Y463.988921 Z-0.125000 I-6.700990 J21.881608
G03 X498.212494 Y464.603948 Z-0.125000 I-11.814212 J-90.947834
G03 X497.382148 Y463.427956 Z-0.125000 I-0.048357 J-0.846998
G03 X501.399890 Y458.213370 Z-0.125000 I11.879584 J4.997908
G03 X505.103636 Y454.282402 Z-0.125000 I87.222461 J78.470418
G03 X510.093120 Y449.688390 Z-0.125000 I50.335619 J49.662220
G03 X512.313894 Y447.065743 Z-0.125000 I17.642159 J12.687256
G03 X522.100010 Y437.644760 Z-0.125000 I212.958222 J211.418738
G03 X531.523912 Y429.290354 Z-0.125000 I14.687478 J7.075348
G02 X532.273390 Y426.188240 Z-0.125000 I-0.610300 J-1.789045
G02 X535.722131 Y423.410423 Z-0.125000 I-1.405519 J-5.274758
G03 X538.309640 Y422.136800 Z-0.125000 I2.152090 J1.106995
G02 X539.119149 Y422.226443 Z-0.125000 I0.557850 J-1.337689
G02 X543.272282 Y420.856479 Z-0.125000 I-2.643896 J-14.995368
G02 X545.679351 Y418.844639 Z-0.125000 I-3.026492 J-6.066941
G02 X546.006900 Y415.789460 Z-0.125000 I-2.417711 J-1.804353
G03 X544.716019 Y415.820380 Z-0.125000 I-0.654544 J-0.364617
G03 X544.115795 Y413.705471 Z-0.125000 I3.382779 J-2.102681
G03 X544.727721 Y410.642292 Z-0.125000 I8.097235 J0.024859
G03 X546.342370 Y410.241640 Z-0.125000 I0.954770 J0.393887
G03 X549.227621 Y408.117774 Z-0.125000 I2.183297 J-0.055739
G02 X558.405750 Y403.045460 Z-0.125000 I2.279343 J-6.715498
G02 X560.895324 Y401.829680 Z-0.125000 I0.448704 J-2.238043
G02 X561.017595 Y400.256756 Z-0.125000 I-1.869773 J-0.936561
G02 X560.492938 Y400.056881 Z-0.125000 I-0.342026 J0.109261
G02 X559.563690 Y401.722510 Z-0.125000 I0.962321 J1.628901
G03 X556.674671 Y403.645779 Z-0.125000 I-3.768649 J-2.529548
G03 X555.377734 Y403.034599 Z-0.125000 I-0.234078 J-1.184937
G03 X554.669181 Y400.452517 Z-0.125000 I5.230565 J-2.823584
G03 X555.165510 Y396.381620 Z-0.125000 I12.705443 J-0.516643
G02 X557.478737 Y399.408944 Z-0.125000 I3.065895 J0.054749
G02 X559.660691 Y399.074859 Z-0.125000 I0.695801 J-2.747987
G02 X559.793914 Y398.186768 Z-0.125000 I-0.307978 J-0.500237
G02 X556.887150 Y397.191470 Z-0.125000 I-2.323025 J2.042138
G03 X561.251515 Y396.056486 Z-0.125000 I26.201434 J91.794008
G02 X561.325514 Y395.870313 Z-0.125000 I-0.027940 J-0.118898
G02 X561.034116 Y395.672550 Z-0.125000 I-0.385448 J0.254382
G03 X556.458740 Y394.485690 Z-0.125000 I9.882231 J-47.508789
G03 X556.754755 Y391.236992 Z-0.125000 I1.665612 J-1.486068
G02 X555.737870 Y387.248990 Z-0.125000 I-1.377242 J-1.772469
G02 X557.063012 Y383.663507 Z-0.125000 I-2.801941 J-3.073174
G03 X556.210521 Y374.985619 Z-0.125000 I169.167013 J-20.999292
G03 X556.713147 Y367.501565 Z-0.125000 I26.920438 J-1.950939
G03 X560.801820 Y362.757820 Z-0.125000 I6.335854 J1.327022
G03 X565.549158 Y360.491940 Z-0.125000 I8.765716 J12.259303
G02 X569.061200 Y358.886910 Z-0.125000 I-3.256092 J-11.769755
G02 X570.297521 Y358.311899 Z-0.125000 I0.316136 J-0.936883
G02 X570.230982 Y357.573239 Z-0.125000 I-0.770323 J-0.302937
G03 X570.374163 Y356.975558 Z-0.125000 I0.367998 J-0.227833
G03 X572.743730 Y356.713010 Z-0.125000 I1.466669 J2.412821
G02 X573.485691 Y353.479436 Z-0.125000 I-1.330084 J-2.007105
G02 X571.474864 Y350.831948 Z-0.125000 I-12.453785 J7.371550
G03 X570.585465 Y348.337362 Z-0.125000 I2.331899 J-2.237238
G03 X573.722890 Y343.414360 Z-0.125000 I6.209508 J0.496075
G03 X578.308232 Y341.747879 Z-0.125000 I3.689250 J3.009463
G03 X586.374231 Y343.467355 Z-0.125000 I-37.516355 J195.766219
G02 X592.830596 Y343.974998 Z-0.125000 I4.882354 J-20.784468
G02 X595.706530 Y340.877260 Z-0.125000 I-0.228899 J-3.096384
G03 X596.120676 Y304.306776 Z-0.125000 I267.765849 J-15.255247
G02 X593.778690 Y268.960240 Z-0.125000 I-121.593527 J-9.694328
G03 X585.156707 Y266.596892 Z-0.125000 I-1.332678 J-12.047179
G01 X585.161880 Y266.589920 Z-0.125000
G02 X582.823043 Y268.957356 Z-0.125000 I-0.218789 J2.122864
G03 X580.943520 Y272.865500 Z-0.125000 I-4.035018 J0.465486
G03 X577.990337 Y273.253549 Z-0.125000 I-1.999806 J-3.787817
G03 X576.148628 Y272.708723 Z-0.125000 I3.386179 J-14.831742
G02 X575.773069 Y272.918985 Z-0.125000 I-0.097485 J0.266410
G02 X576.014370 Y274.095190 Z-0.125000 I1.505539 J0.303989
G03 X571.774485 Y277.986889 Z-0.125000 I-3.128780 J0.846752
G02 X567.127420 Y280.056160 Z-0.125000 I-1.253998 J3.436542
G02 X563.011100 Y280.738103 Z-0.125000 I-1.514096 J3.625032
G02 X561.732856 Y282.642460 Z-0.125000 I3.004051 J3.397552
G03 X561.357528 Y282.749040 Z-0.125000 I-0.225083 J-0.078484
G03 X560.674470 Y281.553310 Z-0.125000 I1.200549 J-1.478773
G03 X559.639363 Y279.319202 Z-0.125000 I8.354089 J-5.227464
G03 X559.888194 Y278.004366 Z-0.125000 I1.340328 J-0.427308
G03 X561.005858 Y277.418014 Z-0.125000 I1.242799 J1.010555
G03 X566.254810 Y277.721320 Z-0.125000 I1.515614 J19.341407
G02 X566.734841 Y275.810027 Z-0.125000 I-0.399154 J-1.116177
G02 X564.611676 Y274.389170 Z-0.125000 I-3.893386 J3.521092
G02 X564.060702 Y274.768121 Z-0.125000 I-0.138970 J0.387964
G02 X565.156660 Y277.000620 Z-0.125000 I2.701433 J0.059096
G03 X561.194520 Y276.745040 Z-0.125000 I-1.849358 J-2.169665
G03 X560.872750 Y271.609510 Z-0.125000 I3.056857 J-2.769374
G02 X561.346782 Y272.221702 Z-0.125000 I0.675005 J-0.033047
G02 X561.701570 Y272.068492 Z-0.125000 I0.088196 J-0.283160
G03 X562.732163 Y270.588693 Z-0.125000 I5.257558 J2.562805
G03 X564.862320 Y270.183740 Z-0.125000 I1.348799 J1.289971
G02 X566.475082 Y273.664643 Z-0.125000 I3.431085 J0.524381
G02 X567.733180 Y272.502530 Z-0.125000 I0.465954 J-0.757623
G02 X569.518664 Y276.719914 Z-0.125000 I9.711094 J-1.624671
G02 X570.030380 Y276.617800 Z-0.125000 I0.231931 J-0.170959
G02 X570.019047 Y274.513187 Z-0.125000 I-4.185065 J-1.029800
G02 X567.315180 Y270.542670 Z-0.125000 I-6.862167 J1.767133
G03 X566.854397 Y266.467224 Z-0.125000 I1.968020 J-2.286283
G02 X565.719500 Y264.898040 Z-0.125000 I-0.818554 J-0.602983
G03 X567.489993 Y263.587348 Z-0.125000 I1.485545 J0.155541
G03 X569.238734 Y264.502494 Z-0.125000 I-0.657984 J3.385730
G02 X570.126281 Y264.968625 Z-0.125000 I1.228485 J-1.261081
G02 X570.658380 Y264.348530 Z-0.125000 I0.090873 J-0.460366
G02 X563.683648 Y258.948294 Z-0.125000 I-5.782314 J0.263946
G03 X563.465460 Y258.331150 Z-0.125000 I-0.068018 J-0.323094
G03 X564.932285 Y257.117642 Z-0.125000 I1.003075 J-0.280800
G03 X570.200770 Y260.091530 Z-0.125000 I-25.677698 J51.643851
G02 X570.125830 Y256.768775 Z-0.125000 I-27.522185 J-1.041496
G02 X569.727445 Y253.213490 Z-0.125000 I-62.196677 J5.169436
G02 X569.504378 Y253.052814 Z-0.125000 I-0.188579 J0.026624
G02 X569.221240 Y253.398530 Z-0.125000 I0.062622 J0.340088
G03 X566.432893 Y253.226974 Z-0.125000 I-1.036487 J-5.899342
G03 X565.884320 Y252.517284 Z-0.125000 I0.227056 J-0.742370
G03 X566.185923 Y251.167487 Z-0.125000 I2.668134 J-0.112418
G03 X567.820920 Y248.349320 Z-0.125000 I32.870031 J17.186623
G03 X567.311960 Y247.059139 Z-0.125000 I0.204014 J-0.825960
G03 X568.417093 Y246.137679 Z-0.125000 I2.049237 J1.334268
G02 X568.755089 Y245.810651 Z-0.125000 I-0.249444 J-0.595991
G02 X568.499290 Y245.462930 Z-0.125000 I-0.224507 J-0.102792
G02 X567.838665 Y237.441365 Z-0.125000 I-36.168234 J-1.059310
G02 X565.894440 Y235.119370 Z-0.125000 I-3.079947 J0.603909
G03 X568.275806 Y235.783607 Z-0.125000 I0.217290 J3.821841
G02 X569.271863 Y236.067680 Z-0.125000 I0.922360 J-1.345816
G02 X569.586657 Y235.698745 Z-0.125000 I-0.014992 J-0.331559
G02 X568.559520 Y230.492280 Z-0.125000 I-32.217052 J3.651265
G02 X566.941213 Y230.706081 Z-0.125000 I-0.728210 J0.719577
G02 X566.326211 Y232.193795 Z-0.125000 I5.625062 J3.196302
G01 X566.294087 Y232.186382 Z-0.125000
G02 X566.921850 Y228.309940 Z-0.125000 I-74.923262 J-14.122362
G02 X568.526444 Y225.982891 Z-0.125000 I-0.240133 J-1.882322
G02 X567.035190 Y223.499316 Z-0.125000 I-4.701318 J1.133394
G02 X565.448705 Y223.042617 Z-0.125000 I-1.271351 J1.432506
G02 X564.753060 Y224.500510 Z-0.125000 I0.162188 J0.972302
G03 X564.667555 Y227.392887 Z-0.125000 I-4.328922 J1.319481
G03 X564.117595 Y227.537221 Z-0.125000 I-0.325594 J-0.120687
G03 X563.239613 Y226.211368 Z-0.125000 I1.837448 J-2.170387
G03 X563.376200 Y222.710730 Z-0.125000 I5.008086 J-1.557580
G02 X561.386785 Y223.086424 Z-0.125000 I-0.698169 J1.758108
G03 X558.839530 Y224.025600 Z-0.125000 I-2.390293 J-2.559060
G02 X556.056755 Y223.353535 Z-0.125000 I-1.612593 J0.579897
G02 X556.171420 Y227.817170 Z-0.125000 I2.038463 J2.180925
G03 X556.320681 Y228.399740 Z-0.125000 I-0.013720 J0.313921
G02 X554.487359 Y229.686638 Z-0.125000 I8.712361 J14.361009
G02 X554.587890 Y229.954733 Z-0.125000 I0.094688 J0.117390
G02 X558.518620 Y229.301890 Z-0.125000 I-0.615135 J-15.863459
G03 X560.484588 Y227.932491 Z-0.125000 I1.458954 J-0.001376
G03 X563.724040 Y232.938020 Z-0.125000 I-1.731338 J4.671489
G02 X562.205402 Y231.884356 Z-0.125000 I-1.337772 J0.306888
G02 X558.534770 Y233.034620 Z-0.125000 I1.484960 J11.170537
G02 X556.985660 Y232.759362 Z-0.125000 I-0.892366 J0.525393
G02 X556.108854 Y233.863505 Z-0.125000 I2.118063 J2.582177
G03 X555.202573 Y234.381145 Z-0.125000 I-0.836872 J-0.413015
G03 X552.770180 Y232.819940 Z-0.125000 I0.225771 J-3.027222
G03 X550.966231 Y230.928437 Z-0.125000 I0.739171 J-2.510931
G02 X548.162850 Y226.388290 Z-0.125000 I-8.386239 J2.042640
G02 X549.705211 Y224.575232 Z-0.125000 I-1.066402 J-2.469753
G02 X549.415098 Y223.802141 Z-0.125000 I-0.703328 J-0.177046
G03 X548.257922 Y222.993615 Z-0.125000 I109.596557 J-158.088626
G03 X548.339450 Y222.240770 Z-0.125000 I0.249176 J-0.353853
G03 X550.408980 Y222.774155 Z-0.125000 I0.618454 J1.881977
G03 X551.986883 Y224.611720 Z-0.125000 I-22.583616 J20.988614
G02 X552.562722 Y224.701670 Z-0.125000 I0.336624 J-0.266817
G02 X553.138510 Y223.508070 Z-0.125000 I-0.729114 J-1.087400
G03 X554.690629 Y221.244734 Z-0.125000 I2.108902 J-0.217650
G03 X557.610426 Y220.518385 Z-0.125000 I18.025628 J66.228220
G02 X558.040931 Y219.732872 Z-0.125000 I-0.131485 J-0.582787
G02 X555.837370 Y217.110320 Z-0.125000 I-4.665279 J1.682902
G03 X553.305583 Y215.873202 Z-0.125000 I-0.828276 J-1.514152
G02 X548.190420 Y211.064190 Z-0.125000 I-5.687791 J0.924979
G03 X548.622102 Y204.102803 Z-0.125000 I4.787685 J-3.197189
G02 X551.181700 Y194.962390 Z-0.125000 I-8.437788 J-7.291431
G03 X555.849095 Y193.324512 Z-0.125000 I43.996139 J117.904832
G01 X555.841528 Y193.299744 Z-0.125000
G03 X554.778339 Y193.096643 Z-0.125000 I-0.328676 J-1.163781
G03 X554.739720 Y191.274810 Z-0.125000 I0.708256 J-0.926339
G02 X547.777499 Y196.287747 Z-0.125000 I2.467352 J10.767994
G03 X543.171520 Y203.671221 Z-0.125000 I-379.804804 J-231.802484
G03 X541.890319 Y203.527615 Z-0.125000 I-0.605391 J-0.385931
G03 X541.039160 Y196.213130 Z-0.125000 I15.304306 J-5.487670
G03 X547.347210 Y177.876893 Z-0.125000 I55.475949 J8.831721
G02 X555.831120 Y159.162030 Z-0.125000 I-113.679377 J-62.814085
G03 X559.946257 Y147.765856 Z-0.125000 I47.487689 J10.706645
G03 X565.235730 Y137.637770 Z-0.125000 I509.345891 J259.564627
G02 X566.587389 Y130.034391 Z-0.125000 I-34.895953 J-10.125315
G02 X567.099040 Y114.773770 Z-0.125000 I-211.910504 J-14.743723
G02 X568.474489 Y105.659645 Z-0.125000 I-229.216544 J-39.252846
G02 X566.663410 Y103.564060 Z-0.125000 I-1.839707 J-0.240452
G03 X566.323186 Y109.581035 Z-0.125000 I-38.983810 J0.813804
G03 X565.571950 Y113.874320 Z-0.125000 I-54.850994 J-7.385420
G03 X562.967714 Y132.987983 Z-0.125000 I-58.935644 J1.704266
G03 X556.580980 Y150.083400 Z-0.125000 I-150.924852 J-46.643793
G02 X549.219486 Y164.294240 Z-0.125000 I183.864670 J104.257632
G03 X543.185250 Y176.720950 Z-0.125000 I-522.542635 J-246.060930
G02 X537.510274 Y195.252442 Z-0.125000 I19.578002 J16.130135
G03 X535.398670 Y213.816110 Z-0.125000 I-45.019489 J4.280995
G02 X534.258218 Y215.428292 Z-0.125000 I0.552551 J1.600339
G03 X534.229730 Y231.138664 Z-0.125000 I-891.760585 J6.238155
G03 X533.604914 Y246.296183 Z-0.125000 I-248.098706 J-2.635371
G03 X530.907840 Y256.732210 Z-0.125000 I-29.840819 J-2.145497
G02 X526.843670 Y267.013493 Z-0.125000 I40.113178 J21.800579
G03 X523.835570 Y276.481500 Z-0.125000 I-91.498984 J-23.858469
G02 X515.772946 Y302.605356 Z-0.125000 I75.403159 J37.577845
G03 X510.869360 Y330.290150 Z-0.125000 I-357.880668 J-49.111875
G03 X497.676687 Y354.341466 Z-0.125000 I-1575.154844 J-848.363023
G03 X480.527040 Y376.995060 Z-0.125000 I-89.764027 J-50.136569
G03 X478.437653 Y376.486206 Z-0.125000 I-0.964125 J-0.585246
G03 X478.861551 Y367.803726 Z-0.125000 I37.285222 J-2.531237
G03 X481.660810 Y355.488879 Z-0.125000 I107.154024 J17.881354
G03 X482.943650 Y355.547840 Z-0.125000 I0.634339 J0.183553
G03 X481.795623 Y344.967694 Z-0.125000 I218.941717 J-29.109214
G03 X480.616471 Y326.013876 Z-0.125000 I432.891023 J-36.444531
G03 X480.723667 Y309.441629 Z-0.125000 I177.201242 J-7.140265
G03 X482.293250 Y308.935110 Z-0.125000 I0.881674 J0.046958
G02 X484.433147 Y314.505533 Z-0.125000 I16.149050 J-3.007477
G02 X485.149119 Y314.288384 Z-0.125000 I0.329690 J-0.201871
G02 X484.334705 Y300.892780 Z-0.125000 I-316.399636 J12.513618
G03 X483.446900 Y288.051770 Z-0.125000 I497.749936 J-40.864758
G02 X482.422103 Y256.025068 Z-0.125000 I-94.530000 J-13.004957
G03 X477.019370 Y226.887030 Z-0.125000 I836.694627 J-170.208621
G03 X474.569972 Y221.321041 Z-0.125000 I8.763146 J-7.178298
G02 X472.045150 Y215.393640 Z-0.125000 I-12.409278 J1.784393
G02 X471.933842 Y213.063377 Z-0.125000 I-5.552418 J-0.902572
G03 X472.243316 Y212.839760 Z-0.125000 I0.197989 J-0.051950
G03 X473.042366 Y213.472958 Z-0.125000 I-2.953512 J4.547883
G02 X480.568880 Y220.423210 Z-0.125000 I190.142523 J-198.357311
G02 X479.925470 Y217.997048 Z-0.125000 I-2.918994 J-0.524289
G02 X475.462883 Y213.120150 Z-0.125000 I-56.515994 J47.234567
G03 X470.680615 Y208.319210 Z-0.125000 I955.559596 J-956.625406
G03 X467.640430 Y204.232910 Z-0.125000 I12.843478 J-12.729568
G03 X464.408251 Y195.519363 Z-0.125000 I14.062049 J-10.172379
G03 X465.395160 Y190.862870 Z-0.125000 I8.210801 J-0.692612
G02 X463.838644 Y175.851054 Z-0.125000 I-113.713720 J4.203926
G03 X462.448770 Y160.497630 Z-0.125000 I95.783464 J-16.410451
G03 X463.180208 Y159.533589 Z-0.125000 I2.309456 J0.992734
G03 X463.443299 Y159.627226 Z-0.125000 I0.102827 J0.127508
G02 X463.944234 Y160.958180 Z-0.125000 I4.603698 J-0.972964
G02 X466.356770 Y162.869860 Z-0.125000 I3.537962 J-1.986752
G02 X464.948100 Y156.718018 Z-0.125000 I-107.306017 J21.334095
G03 X464.402640 Y150.844930 Z-0.125000 I17.770023 J-4.612257
G02 X465.759909 Y146.845714 Z-0.125000 I-0.715132 J-2.472630
G03 X466.220070 Y141.597180 Z-0.125000 I3.208098 J-2.363171
G02 X466.563163 Y142.408369 Z-0.125000 I0.527859 J0.254892
G02 X469.333610 Y143.003285 Z-0.125000 I4.099701 J-12.343517
G02 X472.331588 Y143.026824 Z-0.125000 I1.623129 J-15.798899
G02 X472.576840 Y142.565980 Z-0.125000 I-0.026938 J-0.310017
G02 X473.252279 Y145.551659 Z-0.125000 I2.425772 J1.020467
G03 X473.147000 Y147.490340 Z-0.125000 I-0.825949 J0.927346
G02 X476.707481 Y150.078523 Z-0.125000 I3.715636 J-1.368372
G02 X480.672810 Y149.519320 Z-0.125000 I0.439953 J-11.219035
G02 X478.013894 Y147.056406 Z-0.125000 I-5.590365 J3.368539
G03 X476.145800 Y145.136170 Z-0.125000 I1.838599 J-3.657475
G03 X476.185076 Y144.897859 Z-0.125000 I0.071799 J-0.110559
G03 X476.576225 Y144.936001 Z-0.125000 I0.142754 J0.560741
G02 X482.745681 Y147.559511 Z-0.125000 I34.580986 J-72.754971
G02 X487.509950 Y147.546600 Z-0.125000 I2.365147 J-6.274958
G02 X498.920114 Y144.333837 Z-0.125000 I-26.389244 J-115.589738
G02 X498.892855 Y143.960954 Z-0.125000 I-0.061534 J-0.182939
G02 X495.111221 Y143.842223 Z-0.125000 I-2.291368 J12.698355
G03 X494.472990 Y142.538810 Z-0.125000 I-0.088883 J-0.764442
G02 X492.264562 Y138.872597 Z-0.125000 I-1.834230 J-1.393365
G03 X483.842910 Y133.111380 Z-0.125000 I-1.199080 J-7.283129
G03 X493.888279 Y135.851415 Z-0.125000 I-3.825123 J33.807378
G02 X508.458290 Y139.676960 Z-0.125000 I18.905287 J-42.344353
G03 X508.701391 Y140.480233 Z-0.125000 I-0.005392 J0.440054
G03 X506.839441 Y141.412256 Z-0.125000 I-4.338781 J-6.341935
G02 X505.906764 Y142.080735 Z-0.125000 I0.638883 J1.876271
G02 X506.281640 Y142.798570 Z-0.125000 I0.353902 J0.271985
G03 X511.538270 Y140.928398 Z-0.125000 I9.173925 J17.463144
G02 X518.623308 Y139.409083 Z-0.125000 I-63.512033 J-313.455681
G02 X524.942438 Y137.422707 Z-0.125000 I-8.926227 J-39.440939
G02 X526.453770 Y135.194010 Z-0.125000 I-0.914611 J-2.247004
G02 X528.864310 Y133.728834 Z-0.125000 I-1.819109 J-5.708363
G02 X528.683266 Y133.322356 Z-0.125000 I-0.168133 J-0.168671
G02 X524.912339 Y133.793049 Z-0.125000 I1.473957 J27.149134
G02 X520.291030 Y135.192010 Z-0.125000 I4.672819 J23.768597
G03 X499.976733 Y136.298113 Z-0.125000 I-14.369367 J-76.807102
G03 X486.688910 Y130.685720 Z-0.125000 I1.726189 J-22.623131
G02 X485.860739 Y129.066306 Z-0.125000 I-2.659240 J0.338469
G03 X482.700101 Y125.936460 Z-0.125000 I53.195408 J-56.879536
G03 X482.539179 Y125.094105 Z-0.125000 I0.572363 J-0.545892
G03 X483.545260 Y124.687240 Z-0.125000 I0.699712 J0.282890
G02 X484.236831 Y124.286538 Z-0.125000 I0.209483 J-0.435595
G02 X483.973676 Y123.675788 Z-0.125000 I-0.719460 J-0.052074
G03 X483.263556 Y122.367156 Z-0.125000 I1.242454 J-1.521197
G03 X484.500080 Y121.328540 Z-0.125000 I0.966112 J-0.105175
G02 X490.891067 Y119.577637 Z-0.125000 I1.396804 J-7.440867
G02 X491.632566 Y117.186048 Z-0.125000 I-1.580592 J-1.800797
G02 X489.579057 Y113.954050 Z-0.125000 I-5.954563 J1.514975
G02 X487.360530 Y114.431460 Z-0.125000 I-0.919781 J1.119230
G02 X487.836111 Y112.487278 Z-0.125000 I-0.969136 J-1.267326
G02 X485.991073 Y109.156791 Z-0.125000 I-25.459635 J11.927944
G02 X485.772685 Y109.238166 Z-0.125000 I-0.100224 J0.064759
G02 X486.672340 Y112.130990 Z-0.125000 I9.310351 J-1.309171
G03 X484.262838 Y109.867886 Z-0.125000 I0.296857 J-2.730298
G03 X484.771619 Y107.452478 Z-0.125000 I3.290882 J-0.568098
G03 X486.344058 Y106.793417 Z-0.125000 I1.280783 J0.850437
G03 X489.082810 Y109.326340 Z-0.125000 I-0.670954 J3.472592
G03 X489.629238 Y108.982569 Z-0.125000 I0.308224 J-0.116237
G03 X491.844310 Y111.371735 Z-0.125000 I-79.124142 J75.579920
G02 X492.543382 Y111.372349 Z-0.125000 I0.349812 J-0.314769
G02 X492.862990 Y109.520610 Z-0.125000 I-1.305375 J-1.178758
G03 X487.375928 Y104.078484 Z-0.125000 I8.522901 J-14.080524
G03 X487.833718 Y103.067656 Z-0.125000 I0.569510 J-0.351154
G03 X490.466918 Y103.485196 Z-0.125000 I0.697056 J4.115906
G03 X497.291250 Y109.348210 Z-0.125000 I-9.250961 J17.670918
G02 X496.217532 Y108.158175 Z-0.125000 I-3.078616 J1.698302
G03 X492.392830 Y105.428950 Z-0.125000 I103.038166 J-148.440956
G03 X489.221840 Y102.837113 Z-0.125000 I23.097788 J-31.494744
G03 X489.295700 Y101.963950 Z-0.125000 I0.371102 J-0.408314
G03 X484.785795 Y101.637716 Z-0.125000 I0.932432 J-44.225951
G03 X484.243760 Y101.259011 Z-0.125000 I0.087001 J-0.701780
G03 X484.145201 Y100.469012 Z-0.125000 I1.031639 J-0.529854
G02 X484.234250 Y97.866560 Z-0.125000 I-6.648077 J-1.530230
G03 X481.469419 Y98.356820 Z-0.125000 I-1.799468 J-2.106850
G03 X480.274625 Y97.348659 Z-0.125000 I0.805270 J-2.166413
G03 X480.476860 Y96.692278 Z-0.125000 I0.405027 J-0.234554
G03 X482.750120 Y96.760520 Z-0.125000 I1.070791 J2.227344
G03 X487.101517 Y99.007647 Z-0.125000 I-74.606238 J149.806137
G02 X487.203940 Y98.900746 Z-0.125000 I0.036264 J-0.067772
G02 X486.759621 Y98.266226 Z-0.125000 I-4.345691 J2.570217
G03 X484.574790 Y94.552550 Z-0.125000 I10.722143 J-8.807583
G03 X483.778971 Y91.944021 Z-0.125000 I1.669016 J-1.934849
G03 X484.785534 Y91.358419 Z-0.125000 I0.800996 J0.218925
G03 X488.375936 Y93.000193 Z-0.125000 I-2.748918 J10.758435
G03 X489.905050 Y96.251620 Z-0.125000 I-2.051281 J2.949975
G03 X497.478284 Y101.016195 Z-0.125000 I-20.644425 J41.215133
G02 X514.984830 Y107.683560 Z-0.125000 I19.728892 J-25.485074
G02 X525.104594 Y104.756951 Z-0.125000 I-6.535049 J-41.556793
G02 X533.807650 Y99.922940 Z-0.125000 I-19.749156 J-45.807392
G03 X537.948781 Y95.661590 Z-0.125000 I5.748882 J1.443871
G02 X542.777740 Y91.018990 Z-0.125000 I-1.926581 J-6.836615
G03 X542.896356 Y88.999976 Z-0.125000 I1.152316 J-0.945294
G03 X544.519268 Y87.498654 Z-0.125000 I38.508076 J39.998951
G02 X544.860352 Y86.280222 Z-0.125000 I-0.777295 J-0.874551
G02 X542.467070 Y83.477280 Z-0.125000 I-4.435159 J1.363726
G02 X547.339201 Y84.196890 Z-0.125000 I10.301257 J-52.891580
G02 X547.678990 Y83.951762 Z-0.125000 I0.031797 J-0.313991
G02 X547.509293 Y83.377109 Z-0.125000 I-0.602021 J-0.134604
G03 X545.168940 Y80.880320 Z-0.125000 I29.124008 J-29.644495
G03 X542.728989 Y77.180468 Z-0.125000 I45.357376 J-32.566407
G03 X540.245810 Y72.642100 Z-0.125000 I51.925164 J-31.359506
G02 X540.986777 Y71.981186 Z-0.125000 I0.065539 J-0.672338
G02 X540.600704 Y71.430530 Z-0.125000 I-0.571940 J-0.009674
G02 X537.433766 Y70.681277 Z-0.125000 I-5.369687 J15.628939
G02 X537.066570 Y71.407830 Z-0.125000 I-0.057434 J0.427039
G02 X536.627617 Y68.584710 Z-0.125000 I-3.042899 J-0.972560
G02 X533.699810 Y66.304170 Z-0.125000 I-5.268571 J3.744245
G02 X532.402831 Y66.888396 Z-0.125000 I-0.361246 J0.929794
G02 X531.841000 Y74.330400 Z-0.125000 I12.736958 J4.703781
G03 X528.138084 Y89.025798 Z-0.125000 I-21.203900 J2.471311
G03 X519.195534 Y95.425095 Z-0.125000 I-13.517376 J-9.441616
G03 X508.087041 Y94.871060 Z-0.125000 I-4.748078 J-16.440823
G03 X496.455360 Y84.452670 Z-0.125000 I8.471947 J-21.160891
G03 X484.852990 Y71.228576 Z-0.125000 I20.141312 J-29.373111
G02 X477.038490 Y64.725540 Z-0.125000 I-11.468189 J5.834231
G02 X456.507200 Y68.828869 Z-0.125000 I-4.609281 J30.353674
G03 X440.526170 Y68.531780 Z-0.125000 I-7.755575 J-12.786484
G03 X436.424749 Y66.968008 Z-0.125000 I-1.472032 J-2.299628
G02 X433.251910 Y67.221770 Z-0.125000 I-1.561614 J0.437031
G03 X437.991935 Y69.788569 Z-0.125000 I-2.018226 J9.387017
G03 X437.924253 Y70.767576 Z-0.125000 I-0.456127 J0.460309
G03 X435.847460 Y71.419912 Z-0.125000 I-1.965059 J-2.623980
G03 X431.843740 Y69.736980 Z-0.125000 I0.207988 J-6.098728
G02 X429.920669 Y71.065862 Z-0.125000 I0.531501 J2.825065
G02 X430.042838 Y71.521060 Z-0.125000 I0.277917 J0.169404
G03 X430.025797 Y71.737372 Z-0.125000 I-0.056866 J0.104347
G03 X428.057690 Y72.022520 Z-0.125000 I-1.695207 J-4.765844
G02 X422.237874 Y68.119427 Z-0.125000 I-6.047880 J2.727415
G03 X420.241610 Y67.759830 Z-0.125000 I0.243214 J-7.070989
G02 X402.320176 Y64.931645 Z-0.125000 I-13.227753 J25.624947
G03 X380.649020 Y64.665910 Z-0.125000 I-10.087379 J-61.149775
G03 X364.561622 Y64.844102 Z-0.125000 I-8.823506 J-70.312761
G02 X359.797260 Y66.663680 Z-0.125000 I-0.580009 J5.628575
G02 X355.730415 Y67.106482 Z-0.125000 I-1.716339 J3.133607
G03 X350.398330 Y68.855280 Z-0.125000 I-4.727996 J-5.412498
G02 X346.606565 Y70.137825 Z-0.125000 I1.406544 J10.404693
G03 X336.119890 Y74.519670 Z-0.125000 I-23.088654 J-40.516664
G03 X313.530992 Y80.609194 Z-0.125000 I-90.546013 J-290.936445
G02 X288.478990 Y88.463770 Z-0.125000 I37.144197 J162.349316
G02 X279.737838 Y90.354831 Z-0.125000 I63.886294 J316.452883
G02 X276.107110 Y92.086780 Z-0.125000 I2.090332 J9.053584
G02 X274.266485 Y88.414484 Z-0.125000 I-10.531437 J2.981132
G02 X273.831333 Y88.514546 Z-0.125000 I-0.194790 J0.149125
G02 X273.434192 Y90.784240 Z-0.125000 I40.126832 J8.190798
G03 X272.562430 Y90.964910 Z-0.125000 I-0.468799 J-0.068498
G03 X270.863318 Y87.286000 Z-0.125000 I0.199167 J-2.323810
G02 X276.425170 Y77.449880 Z-0.125000 I-43.735291 J-31.220742
G02 X275.758290 Y76.975038 Z-0.125000 I-0.370935 J-0.184763
G02 X273.106003 Y80.329894 Z-0.125000 I14.377120 J14.092138
G02 X261.869755 Y98.195607 Z-0.125000 I7859.637858 J4955.612911
G03 X257.271300 Y103.132300 Z-0.125000 I-15.157602 J-9.509034
G03 X239.264061 Y104.207221 Z-0.125000 I-11.187116 J-36.040790
G03 X222.972210 Y98.050350 Z-0.125000 I8.810407 J-47.947012
G02 X217.838902 Y81.557636 Z-0.125000 I-88.070089 J18.366332
G03 X218.331240 Y75.106840 Z-0.125000 I6.532390 J-2.745620
G03 X219.712047 Y71.412286 Z-0.125000 I4.292286 J-0.501105
G02 X220.470760 Y67.967460 Z-0.125000 I-2.060192 J-2.259716
G02 X222.670453 Y66.901827 Z-0.125000 I0.069728 J-2.659199
G02 X222.700735 Y65.599270 Z-0.125000 I-0.898903 J-0.672528
G02 X221.458360 Y64.885363 Z-0.125000 I-1.353766 J0.917913
G02 X215.824060 Y65.916020 Z-0.125000 I-0.791195 J11.590628
G03 X216.138003 Y67.530229 Z-0.125000 I-0.454340 J0.925997
G03 X213.270431 Y69.467651 Z-0.125000 I-5.289677 J-4.738380
G03 X208.342099 Y70.600530 Z-0.125000 I-7.080120 J-19.514221
G03 X204.779330 Y69.828640 Z-0.125000 I-0.605742 J-5.812290
G03 X203.486120 Y70.444690 Z-0.125000 I-0.917240 J-0.260091
G02 X200.533674 Y69.468059 Z-0.125000 I-7.147034 J16.655075
G02 X200.017827 Y69.927234 Z-0.125000 I-0.097495 J0.409816
G02 X201.422690 Y73.233550 Z-0.125000 I6.358794 J-0.750247
G03 X197.784813 Y72.487917 Z-0.125000 I-1.503174 J-1.913401
G03 X196.616269 Y68.742375 Z-0.125000 I8.742782 J-4.782651
G02 X195.713231 Y67.691365 Z-0.125000 I-1.210562 J0.126672
G02 X193.441300 Y68.772380 Z-0.125000 I-0.493646 J1.890447
G03 X191.852156 Y66.044119 Z-0.125000 I3.215495 J-3.699894
G02 X188.887650 Y65.050000 Z-0.125000 I-1.768895 J0.357720
G01 X188.887630 Y65.050300 Z-0.125000
G00 Z5.000000

(End cutting path id: path41557)


(Start cutting path id: path41557)
(Change tool to Default tool)

G00 Z5.000000
G00 X192.014070 Y65.112520

G01 Z-0.125000 F100.0(Penetrate)
G02 X192.882775 Y65.121040 Z-0.125000 I0.440886 J-0.661973 F400.000000
G02 X193.032251 Y64.810731 Z-0.125000 I-0.176094 J-0.275981
G02 X192.841462 Y64.646561 Z-0.125000 I-0.182593 J0.019252
G02 X192.014070 Y65.112520 Z-0.125000 I0.046960 J1.050955
G01 X192.014070 Y65.112520 Z-0.125000
G00 Z5.000000

(End cutting path id: path41557)


(Start cutting path id: path41557)
(Change tool to Default tool)

G00 Z5.000000
G00 X199.830150 Y67.258380

G01 Z-0.125000 F100.0(Penetrate)
G02 X199.278986 Y68.210549 Z-0.125000 I0.636825 J1.004232 F400.000000
G02 X199.517651 Y68.364480 Z-0.125000 I0.164328 J0.007202
G02 X200.211080 Y67.718337 Z-0.125000 I-0.771828 J-1.523470
G02 X199.830150 Y67.258380 Z-0.125000 I-0.271714 J-0.162689
G01 X199.830150 Y67.258380 Z-0.125000
G00 Z5.000000

(End cutting path id: path41557)


(Start cutting path id: path41557)
(Change tool to Default tool)

G00 Z5.000000
G00 X203.189060 Y65.127320

G01 Z-0.125000 F100.0(Penetrate)
G02 X203.610989 Y65.933888 Z-0.125000 I1.078250 J-0.050407 F400.000000
G02 X203.804941 Y65.864277 Z-0.125000 I0.074537 J-0.097325
G02 X203.752877 Y65.211669 Z-0.125000 I-1.052945 J-0.244378
G02 X203.189060 Y65.127320 Z-0.125000 I-0.306947 J0.125195
G01 X203.189060 Y65.127320 Z-0.125000
G00 Z5.000000

(End cutting path id: path41557)


(Start cutting path id: path41557)
(Change tool to Default tool)

G00 Z5.000000
G00 X208.703470 Y66.115150

G01 Z-0.125000 F100.0(Penetrate)
G02 X208.828887 Y66.466222 Z-0.125000 I0.185415 J0.131701 F400.000000
G02 X209.111230 Y66.396520 Z-0.125000 I0.078719 J-0.287826
G02 X209.128783 Y66.191893 Z-0.125000 I-0.104591 J-0.112038
G02 X208.703470 Y66.115150 Z-0.125000 I-0.254373 J0.192822
G01 X208.703470 Y66.115150 Z-0.125000
G00 Z5.000000

(End cutting path id: path41557)


(Start cutting path id: path41557)
(Change tool to Default tool)

G00 Z5.000000
G00 X210.674970 Y64.914340

G01 Z-0.125000 F100.0(Penetrate)
G02 X211.587487 Y64.938558 Z-0.125000 I0.496702 J-1.511791 F400.000000
G02 X211.615035 Y64.816101 Z-0.125000 I-0.018543 J-0.068498
G02 X211.155870 Y64.596051 Z-0.125000 I-0.643142 J0.752922
G02 X210.674970 Y64.914340 Z-0.125000 I-0.076835 J0.406348
G01 X210.674970 Y64.914340 Z-0.125000
G00 Z5.000000

(End cutting path id: path41557)


(Start cutting path id: path41557)
(Change tool to Default tool)

G00 Z5.000000
G00 X211.293740 Y66.135750

G01 Z-0.125000 F100.0(Penetrate)
G02 X211.545791 Y66.463310 Z-0.125000 I0.187144 J0.116750 F400.000000
G02 X212.240484 Y66.085841 Z-0.125000 I-0.588267 J-1.910637
G02 X212.198788 Y65.947135 Z-0.125000 I-0.050561 J-0.060421
G02 X211.293740 Y66.135750 Z-0.125000 I-0.166239 J1.468015
G01 X211.293740 Y66.135750 Z-0.125000
G00 Z5.000000

(End cutting path id: path41557)


(Start cutting path id: path41557)
(Change tool to Default tool)

G00 Z5.000000
G00 X211.815180 Y67.849030

G01 Z-0.125000 F100.0(Penetrate)
G02 X213.112529 Y68.269351 Z-0.125000 I0.898819 J-0.561927 F400.000000
G02 X214.102489 Y67.584032 Z-0.125000 I-1.036778 J-2.555324
G02 X214.006635 Y67.359471 Z-0.125000 I-0.098360 J-0.090753
G02 X211.815180 Y67.849030 Z-0.125000 I-0.088995 J4.751304
G01 X211.815180 Y67.849030 Z-0.125000
G00 Z5.000000

(End cutting path id: path41557)


(Start cutting path id: path41557)
(Change tool to Default tool)

G00 Z5.000000
G00 X209.985510 Y68.301510

G01 Z-0.125000 F100.0(Penetrate)
G02 X210.345333 Y68.420293 Z-0.125000 I0.287530 J-0.266612 F400.000000
G02 X210.380884 Y68.322615 Z-0.125000 I-0.011135 J-0.059362
G02 X210.106650 Y68.135932 Z-0.125000 I-0.454705 J0.373190
G02 X209.985510 Y68.301510 Z-0.125000 I-0.033152 J0.102848
G01 X209.985510 Y68.301510 Z-0.125000
G00 Z5.000000

(End cutting path id: path41557)


(Start cutting path id: path41557)
(Change tool to Default tool)

G00 Z5.000000
G00 X207.906770 Y68.771560

G01 Z-0.125000 F100.0(Penetrate)
G02 X208.496258 Y68.968756 Z-0.125000 I0.425208 J-0.291406 F400.000000
G02 X208.624636 Y68.753365 Z-0.125000 I-0.061372 J-0.182533
G02 X208.410930 Y68.510366 Z-0.125000 I-0.305075 J0.052827
G02 X207.906770 Y68.771560 Z-0.125000 I-0.119422 J0.386655
G01 X207.906770 Y68.771560 Z-0.125000
G00 Z5.000000

(End cutting path id: path41557)


(Start cutting path id: path41557)
(Change tool to Default tool)

G00 Z5.000000
G00 X209.599940 Y71.669850

G01 Z-0.125000 F100.0(Penetrate)
G03 X207.132527 Y72.079847 Z-0.125000 I-3.435842 J-13.047729 F400.000000
G03 X207.111346 Y71.976772 Z-0.125000 I-0.003809 J-0.052931
G03 X209.438881 Y71.301062 Z-0.125000 I7.788997 J22.483253
G03 X209.599940 Y71.669850 Z-0.125000 I0.046944 J0.199062
G01 X209.599940 Y71.669850 Z-0.125000
G00 Z5.000000

(End cutting path id: path41557)


(Start cutting path id: path41557)
(Change tool to Default tool)

G00 Z5.000000
G00 X213.378030 Y72.430540

G01 Z-0.125000 F100.0(Penetrate)
G03 X212.419149 Y73.790830 Z-0.125000 I-2.527184 J-0.763328 F400.000000
G03 X212.188271 Y73.673766 Z-0.125000 I-0.086042 J-0.116509
G03 X212.467188 Y72.521590 Z-0.125000 I2.559725 J0.009805
G03 X213.378030 Y72.430540 Z-0.125000 I0.484654 J0.246912
G01 X213.378030 Y72.430540 Z-0.125000
G00 Z5.000000

(End cutting path id: path41557)


(Start cutting path id: path41557)
(Change tool to Default tool)

G00 Z5.000000
G00 X214.731590 Y71.795150

G01 Z-0.125000 F100.0(Penetrate)
G03 X212.853203 Y70.962615 Z-0.125000 I1.504727 J-5.930305 F400.000000
G03 X212.892950 Y70.816835 Z-0.125000 I0.044007 J-0.066310
G03 X213.947428 Y70.927289 Z-0.125000 I0.180440 J3.366047
G03 X214.731590 Y71.795150 Z-0.125000 I-0.279382 J1.040636
G01 X214.731590 Y71.795150 Z-0.125000
G00 Z5.000000

(End cutting path id: path41557)


(Start cutting path id: path41557)
(Change tool to Default tool)

G00 Z5.000000
G00 X216.817790 Y75.229250

G01 Z-0.125000 F100.0(Penetrate)
G03 X215.365061 Y76.243249 Z-0.125000 I-2.483597 J-2.010541 F400.000000
G03 X215.186701 Y76.092309 Z-0.125000 I-0.043942 J-0.128925
G03 X215.524763 Y75.461178 Z-0.125000 I1.092079 J0.178860
G03 X216.817790 Y75.229250 Z-0.125000 I0.826583 J0.887943
G01 X216.817790 Y75.229250 Z-0.125000
G00 Z5.000000

(End cutting path id: path41557)


(Start cutting path id: path41557)
(Change tool to Default tool)

G00 Z5.000000
G00 X216.222500 Y77.768440

G01 Z-0.125000 F100.0(Penetrate)
G02 X216.614768 Y78.194346 Z-0.125000 I0.338867 J0.081493 F400.000000
G02 X217.083748 Y77.917007 Z-0.125000 I-0.112471 J-0.725379
G02 X217.027524 Y77.690797 Z-0.125000 I-0.117841 J-0.090803
G02 X216.222500 Y77.768440 Z-0.125000 I-0.335209 J0.736634
G01 X216.222500 Y77.768440 Z-0.125000
G00 Z5.000000

(End cutting path id: path41557)


(Start cutting path id: path41557)
(Change tool to Default tool)

G00 Z5.000000
G00 X218.698480 Y77.416620

G01 Z-0.125000 F100.0(Penetrate)
G02 X219.151426 Y77.503805 Z-0.125000 I0.292626 J-0.300087 F400.000000
G02 X219.193195 Y77.357160 Z-0.125000 I-0.037203 J-0.089868
G02 X218.899144 Y77.168093 Z-0.125000 I-0.386453 J0.277842
G02 X218.698480 Y77.416620 Z-0.125000 I-0.035027 J0.176992
G01 X218.698480 Y77.416620 Z-0.125000
G00 Z5.000000

(End cutting path id: path41557)


(Start cutting path id: path41557)
(Change tool to Default tool)

G00 Z5.000000
G00 X209.615430 Y77.291810

G01 Z-0.125000 F100.0(Penetrate)
G03 X207.823884 Y77.831294 Z-0.125000 I-2.516499 J-5.112446 F400.000000
G03 X207.773186 Y77.700192 Z-0.125000 I-0.009209 J-0.071792
G03 X209.212867 Y76.889217 Z-0.125000 I4.869249 J6.960734
G03 X209.615430 Y77.291810 Z-0.125000 I0.123258 J0.279314
G01 X209.615430 Y77.291810 Z-0.125000
G00 Z5.000000

(End cutting path id: path41557)


(Start cutting path id: path41557)
(Change tool to Default tool)

G00 Z5.000000
G00 X207.125160 Y77.206110

G01 Z-0.125000 F100.0(Penetrate)
G03 X206.535672 Y77.403314 Z-0.125000 I-0.425213 J-0.291401 F400.000000
G03 X206.407290 Y77.187922 Z-0.125000 I0.061371 J-0.182535
G03 X206.620995 Y76.944919 Z-0.125000 I0.305078 J0.052825
G03 X207.125160 Y77.206110 Z-0.125000 I0.119427 J0.386655
G01 X207.125160 Y77.206110 Z-0.125000
G00 Z5.000000

(End cutting path id: path41557)


(Start cutting path id: path41557)
(Change tool to Default tool)

G00 Z5.000000
G00 X206.343550 Y75.624630

G01 Z-0.125000 F100.0(Penetrate)
G03 X205.385226 Y75.972421 Z-0.125000 I-0.721680 J-0.494352 F400.000000
G03 X205.092498 Y75.647895 Z-0.125000 I0.110773 J-0.394205
G03 X205.270549 Y75.363812 Z-0.125000 I0.247471 J-0.042735
G03 X206.343550 Y75.624630 Z-0.125000 I0.307951 J1.070655
G01 X206.343550 Y75.624630 Z-0.125000
G00 Z5.000000

(End cutting path id: path41557)


(Start cutting path id: path41557)
(Change tool to Default tool)

G00 Z5.000000
G00 X204.519800 Y73.484860

G01 Z-0.125000 F100.0(Penetrate)
G03 X203.930973 Y73.907293 Z-0.125000 I-0.576364 J-0.181792 F400.000000
G03 X203.715320 Y73.713854 Z-0.125000 I0.004580 J-0.222035
G03 X203.868350 Y73.371154 Z-0.125000 I0.356565 J-0.046296
G03 X204.519800 Y73.484860 Z-0.125000 I0.267623 J0.389734
G01 X204.519800 Y73.484860 Z-0.125000
G00 Z5.000000

(End cutting path id: path41557)


(Start cutting path id: path41557)
(Change tool to Default tool)

G00 Z5.000000
G00 X203.186440 Y75.377810

G01 Z-0.125000 F100.0(Penetrate)
G03 X202.627038 Y76.005467 Z-0.125000 I-0.458971 J0.154053 F400.000000
G03 X201.244356 Y75.473427 Z-0.125000 I0.974397 J-4.594997
G03 X201.280502 Y75.267708 Z-0.125000 I0.055825 J-0.096227
G03 X203.186440 Y75.377810 Z-0.125000 I0.723578 J4.025956
G01 X203.186440 Y75.377810 Z-0.125000
G00 Z5.000000

(End cutting path id: path41557)


(Start cutting path id: path41557)
(Change tool to Default tool)

G00 Z5.000000
G00 X202.218800 Y77.017100

G01 Z-0.125000 F100.0(Penetrate)
G01 X199.125710 Y76.847855 Z-0.125000 F400.000000
G03 X199.693786 Y76.871184 Z-0.125000 I-0.957439 J30.242448
G03 X202.218800 Y77.017100 Z-0.125000 I-8.752055 J173.370650
G01 X202.218800 Y77.017100 Z-0.125000
G00 Z5.000000

(End cutting path id: path41557)


(Start cutting path id: path41557)
(Change tool to Default tool)

G00 Z5.000000
G00 X199.375540 Y79.182940

G01 Z-0.125000 F100.0(Penetrate)
G03 X199.267351 Y79.282645 Z-0.125000 I-0.062709 J0.040505 F400.000000
G03 X198.898581 Y78.917234 Z-0.125000 I1.260969 J-1.641343
G01 X198.934720 Y78.869654 Z-0.125000
G03 X199.375540 Y79.182940 Z-0.125000 I-0.463119 J1.118429
G01 X199.375540 Y79.182940 Z-0.125000
G00 Z5.000000

(End cutting path id: path41557)


(Start cutting path id: path41557)
(Change tool to Default tool)

G00 Z5.000000
G00 X204.875750 Y80.995140

G01 Z-0.125000 F100.0(Penetrate)
G03 X204.558215 Y80.506488 Z-0.125000 I0.095265 J-0.409401 F400.000000
G03 X204.780380 Y80.041691 Z-0.125000 I0.998238 J0.191647
G03 X204.902039 Y80.069190 Z-0.125000 I0.053675 J0.045401
G03 X204.875750 Y80.995140 Z-0.125000 I-1.588329 J0.418253
G01 X204.875750 Y80.995140 Z-0.125000
G00 Z5.000000

(End cutting path id: path41557)


(Start cutting path id: path41557)
(Change tool to Default tool)

G00 Z5.000000
G00 X206.151340 Y87.402540

G01 Z-0.125000 F100.0(Penetrate)
G03 X205.884477 Y87.766075 Z-0.125000 I-0.602447 J-0.162527 F400.000000
G01 X205.813394 Y87.718822 Z-0.125000
G03 X205.965732 Y87.340750 Z-0.125000 I0.951708 J0.163748
G03 X206.151340 Y87.402540 Z-0.125000 I0.084110 J0.057011
G01 X206.151340 Y87.402540 Z-0.125000
G00 Z5.000000

(End cutting path id: path41557)


(Start cutting path id: path41557)
(Change tool to Default tool)

G00 Z5.000000
G00 X213.899100 Y95.424380

G01 Z-0.125000 F100.0(Penetrate)
G03 X213.285078 Y95.477081 Z-0.125000 I-0.333890 J-0.286813 F400.000000
G03 X213.185108 Y95.151942 Z-0.125000 I0.196724 J-0.238425
G03 X213.426618 Y94.980629 Z-0.125000 I0.228988 J0.066925
G03 X213.899100 Y95.424380 Z-0.125000 I-0.026360 J0.501479
G01 X213.899100 Y95.424380 Z-0.125000
G00 Z5.000000

(End cutting path id: path41557)


(Start cutting path id: path41557)
(Change tool to Default tool)

G00 Z5.000000
G00 X216.778790 Y91.864900

G01 Z-0.125000 F100.0(Penetrate)
G03 X215.546430 Y91.213849 Z-0.125000 I0.851901 J-3.104422 F400.000000
G03 X215.552720 Y91.071824 Z-0.125000 I0.058255 J-0.068572
G03 X215.795061 Y91.047088 Z-0.125000 I0.143075 J0.202238
G03 X216.778790 Y91.864900 Z-0.125000 I-0.923332 J2.111217
G01 X216.778790 Y91.864900 Z-0.125000
G00 Z5.000000

(End cutting path id: path41557)


(Start cutting path id: path41557)
(Change tool to Default tool)

G00 Z5.000000
G00 X220.151970 Y89.299780

G01 Z-0.125000 F100.0(Penetrate)
G02 X220.649250 Y89.738561 Z-0.125000 I0.623415 J-0.205350 F400.000000
G02 X220.797922 Y89.613389 Z-0.125000 I0.023970 J-0.122408
G02 X220.621589 Y89.205161 Z-0.125000 I-0.591037 J0.013101
G02 X220.151970 Y89.299780 Z-0.125000 I-0.202824 J0.206064
G01 X220.151970 Y89.299780 Z-0.125000
G00 Z5.000000

(End cutting path id: path41557)


(Start cutting path id: path41557)
(Change tool to Default tool)

G00 Z5.000000
G00 X223.031650 Y101.880950

G01 Z-0.125000 F100.0(Penetrate)
G03 X221.799301 Y101.229897 Z-0.125000 I0.851892 J-3.104360 F400.000000
G03 X221.805591 Y101.087870 Z-0.125000 I0.058257 J-0.068573
G03 X222.047930 Y101.063134 Z-0.125000 I0.143074 J0.202232
G03 X223.031650 Y101.880950 Z-0.125000 I-0.923338 J2.111197
G01 X223.031650 Y101.880950 Z-0.125000
G00 Z5.000000

(End cutting path id: path41557)


(Start cutting path id: path41557)
(Change tool to Default tool)

G00 Z5.000000
G00 X225.875790 Y104.781480

G01 Z-0.125000 F100.0(Penetrate)
G03 X224.881146 Y104.183351 Z-0.125000 I-0.139336 J-0.894370 F400.000000
G03 X224.948273 Y103.528732 Z-0.125000 I0.736805 J-0.255197
G03 X225.271630 Y103.475603 Z-0.125000 I0.184084 J0.109795
G03 X225.875790 Y104.781480 Z-0.125000 I-1.120946 J1.311297
G01 X225.875790 Y104.781480 Z-0.125000
G00 Z5.000000

(End cutting path id: path41557)


(Start cutting path id: path41557)
(Change tool to Default tool)

G00 Z5.000000
G00 X231.157110 Y106.752630

G01 Z-0.125000 F100.0(Penetrate)
G03 X231.106301 Y107.226886 Z-0.125000 I-0.114657 J0.227566 F400.000000
G03 X230.434185 Y107.178776 Z-0.125000 I-0.264602 J-1.022334
G03 X230.384885 Y106.933933 Z-0.125000 I0.058185 J-0.139100
G03 X231.157110 Y106.752630 Z-0.125000 I0.529756 J0.521167
G01 X231.157110 Y106.752630 Z-0.125000
G00 Z5.000000

(End cutting path id: path41557)


(Start cutting path id: path41557)
(Change tool to Default tool)

G00 Z5.000000
G00 X237.577860 Y109.313880

G01 Z-0.125000 F100.0(Penetrate)
G03 X236.312775 Y109.347884 Z-0.125000 I-0.672007 J-1.451219 F400.000000
G03 X236.117366 Y109.077255 Z-0.125000 I0.115510 J-0.289267
G03 X236.277356 Y108.902772 Z-0.125000 I0.164392 J-0.009854
G03 X237.577860 Y109.313880 Z-0.125000 I0.055790 J2.086086
G01 X237.577860 Y109.313880 Z-0.125000
G00 Z5.000000

(End cutting path id: path41557)


(Start cutting path id: path41557)
(Change tool to Default tool)

G00 Z5.000000
G00 X246.283740 Y109.626620

G01 Z-0.125000 F100.0(Penetrate)
G03 X245.690264 Y109.803114 Z-0.125000 I-0.365971 J-0.144552 F400.000000
G03 X245.423415 Y109.370386 Z-0.125000 I0.375892 J-0.530442
G03 X245.578435 Y109.196313 Z-0.125000 I0.149691 J-0.022757
G03 X246.283740 Y109.626620 Z-0.125000 I-0.029647 J0.841770
G01 X246.283740 Y109.626620 Z-0.125000
G00 Z5.000000

(End cutting path id: path41557)


(Start cutting path id: path41557)
(Change tool to Default tool)

G00 Z5.000000
G00 X251.676840 Y109.363040

G01 Z-0.125000 F100.0(Penetrate)
G03 X251.008925 Y109.557752 Z-0.125000 I-0.573908 J-0.725742 F400.000000
G03 X250.957942 Y109.431605 Z-0.125000 I0.007817 J-0.076535
G03 X251.416131 Y109.103939 Z-0.125000 I0.873039 J0.736622
G03 X251.676840 Y109.363040 Z-0.125000 I0.072995 J0.187266
G01 X251.676840 Y109.363040 Z-0.125000
G00 Z5.000000

(End cutting path id: path41557)


(Start cutting path id: path41557)
(Change tool to Default tool)

G00 Z5.000000
G00 X257.148100 Y107.988730

G01 Z-0.125000 F100.0(Penetrate)
G03 X256.507173 Y108.527454 Z-0.125000 I-0.634695 J-0.104483 F400.000000
G03 X255.904686 Y108.343090 Z-0.125000 I0.010773 J-1.111827
G03 X255.917146 Y108.168703 Z-0.125000 I0.055334 J-0.083685
G03 X257.148100 Y107.988730 Z-0.125000 I0.910141 J1.925415
G01 X257.148100 Y107.988730 Z-0.125000
G00 Z5.000000

(End cutting path id: path41557)


(Start cutting path id: path41557)
(Change tool to Default tool)

G00 Z5.000000
G00 X259.297050 Y109.503620

G01 Z-0.125000 F100.0(Penetrate)
G03 X259.067189 Y109.361825 Z-0.125000 I-0.088977 J-0.112970 F400.000000
G03 X259.266263 Y108.936339 Z-0.125000 I0.984993 J0.201538
G03 X259.371715 Y108.959086 Z-0.125000 I0.047078 J0.037559
G03 X259.297050 Y109.503620 Z-0.125000 I-0.709676 J0.180077
G01 X259.297050 Y109.503620 Z-0.125000
G00 Z5.000000

(End cutting path id: path41557)


(Start cutting path id: path41557)
(Change tool to Default tool)

G00 Z5.000000
G00 X256.017470 Y123.334520

G01 Z-0.125000 F100.0(Penetrate)
G03 X253.029939 Y123.763386 Z-0.125000 I-3.512935 J-13.851349 F400.000000
G03 X252.996747 Y123.633069 Z-0.125000 I-0.002529 J-0.068741
G03 X254.381642 Y123.109724 Z-0.125000 I3.281859 J6.590531
G03 X256.017470 Y123.334520 Z-0.125000 I0.549947 J2.062378
G01 X256.017470 Y123.334520 Z-0.125000
G00 Z5.000000

(End cutting path id: path41557)


(Start cutting path id: path41557)
(Change tool to Default tool)

G00 Z5.000000
G00 X256.370180 Y131.497860

G01 Z-0.125000 F100.0(Penetrate)
G02 X257.360673 Y131.569677 Z-0.125000 I0.553850 J-0.772342 F400.000000
G02 X257.639649 Y131.223641 Z-0.125000 I-0.253284 J-0.489673
G02 X257.516264 Y131.067366 Z-0.125000 I-0.119734 J-0.032312
G02 X256.370180 Y131.497860 Z-0.125000 I0.055621 J1.888905
G01 X256.370180 Y131.497860 Z-0.125000
G00 Z5.000000

(End cutting path id: path41557)


(Start cutting path id: path41557)
(Change tool to Default tool)

G00 Z5.000000
G00 X251.839680 Y135.554150

G01 Z-0.125000 F100.0(Penetrate)
G02 X252.752199 Y135.578376 Z-0.125000 I0.496715 J-1.511741 F400.000000
G02 X252.779749 Y135.455915 Z-0.125000 I-0.018544 J-0.068501
G02 X252.320592 Y135.235859 Z-0.125000 I-0.643131 J0.752868
G02 X251.839680 Y135.554150 Z-0.125000 I-0.076840 J0.406357
G01 X251.839680 Y135.554150 Z-0.125000
G00 Z5.000000

(End cutting path id: path41557)


(Start cutting path id: path41557)
(Change tool to Default tool)

G00 Z5.000000
G00 X254.282200 Y144.682980

G01 Z-0.125000 F100.0(Penetrate)
G03 X253.614296 Y144.877693 Z-0.125000 I-0.573905 J-0.725729 F400.000000
G03 X253.563314 Y144.751549 Z-0.125000 I0.007816 J-0.076534
G03 X254.021496 Y144.423885 Z-0.125000 I0.873035 J0.736614
G03 X254.282200 Y144.682980 Z-0.125000 I0.072994 J0.187262
G01 X254.282200 Y144.682980 Z-0.125000
G00 Z5.000000

(End cutting path id: path41557)


(Start cutting path id: path41557)
(Change tool to Default tool)

G00 Z5.000000
G00 X251.460810 Y148.608510

G01 Z-0.125000 F100.0(Penetrate)
G03 X251.255806 Y152.765499 Z-0.125000 I-3.498393 J1.911024 F400.000000
G03 X249.828964 Y153.409579 Z-0.125000 I-1.240738 J-0.846136
G03 X249.135166 Y152.543501 Z-0.125000 I0.098654 J-0.789962
G03 X251.460810 Y148.608510 Z-0.125000 I5.363496 J0.515172
G01 X251.460810 Y148.608510 Z-0.125000
G00 Z5.000000

(End cutting path id: path41557)


(Start cutting path id: path41557)
(Change tool to Default tool)

G00 Z5.000000
G00 X249.158330 Y148.613510

G01 Z-0.125000 F100.0(Penetrate)
G03 X248.696976 Y148.666667 Z-0.125000 I-0.255269 J-0.186854 F400.000000
G03 X248.617333 Y148.398807 Z-0.125000 I0.168076 J-0.195744
G03 X248.811852 Y148.261717 Z-0.125000 I0.183144 J0.053316
G03 X249.158330 Y148.613510 Z-0.125000 I-0.021997 J0.368183
G01 X249.158330 Y148.613510 Z-0.125000
G00 Z5.000000

(End cutting path id: path41557)


(Start cutting path id: path41557)
(Change tool to Default tool)

G00 Z5.000000
G00 X255.810990 Y150.425040

G01 Z-0.125000 F100.0(Penetrate)
G03 X254.412051 Y150.662073 Z-0.125000 I-0.986148 J-1.573424 F400.000000
G03 X254.150025 Y150.406222 Z-0.125000 I0.077965 J-0.341948
G03 X254.284284 Y150.200533 Z-0.125000 I0.161886 J-0.040995
G03 X255.810990 Y150.425040 Z-0.125000 I0.415566 J2.477293
G01 X255.810990 Y150.425040 Z-0.125000
G00 Z5.000000

(End cutting path id: path41557)


(Start cutting path id: path41557)
(Change tool to Default tool)

G00 Z5.000000
G00 X240.712900 Y161.060090

G01 Z-0.125000 F100.0(Penetrate)
G02 X240.919640 Y161.389653 Z-0.125000 I0.264013 J0.064007 F400.000000
G02 X241.109939 Y161.298654 Z-0.125000 I0.036338 J-0.168487
G02 X241.082938 Y161.061818 Z-0.125000 I-0.194323 J-0.097803
G02 X240.712900 Y161.060090 Z-0.125000 I-0.185744 J0.154340
G01 X240.712900 Y161.060090 Z-0.125000
G00 Z5.000000

(End cutting path id: path41557)


(Start cutting path id: path41557)
(Change tool to Default tool)

G00 Z5.000000
G00 X241.666280 Y167.678800

G01 Z-0.125000 F100.0(Penetrate)
G02 X239.065697 Y170.776820 Z-0.125000 I5.962886 J7.645969 F400.000000
G02 X239.339502 Y171.057389 Z-0.125000 I0.181746 J0.096523
G02 X242.094647 Y169.182530 Z-0.125000 I-5.591707 J-11.178931
G02 X241.666280 Y167.678800 Z-0.125000 I-0.580815 J-0.647423
G01 X241.666280 Y167.678800 Z-0.125000
G00 Z5.000000

(End cutting path id: path41557)


(Start cutting path id: path41557)
(Change tool to Default tool)

G00 Z5.000000
G00 X236.886180 Y171.248240

G01 Z-0.125000 F100.0(Penetrate)
G02 X237.096572 Y171.716154 Z-0.125000 I0.235853 J0.175209 F400.000000
G02 X237.593318 Y171.554315 Z-0.125000 I0.057894 J-0.665570
G02 X237.590226 Y171.302673 Z-0.125000 I-0.108471 J-0.124508
G02 X236.886180 Y171.248240 Z-0.125000 I-0.390557 J0.471183
G01 X236.886180 Y171.248240 Z-0.125000
G00 Z5.000000

(End cutting path id: path41557)


(Start cutting path id: path41557)
(Change tool to Default tool)

G00 Z5.000000
G00 X260.460220 Y185.397030

G01 Z-0.125000 F100.0(Penetrate)
G03 X260.204560 Y189.445580 Z-0.125000 I-14.269170 J1.131271 F400.000000
G03 X259.953494 Y189.457260 Z-0.125000 I-0.127035 J-0.026446
G03 X259.436741 Y186.864574 Z-0.125000 I12.471036 J-3.833464
G03 X260.460220 Y185.397030 Z-0.125000 I1.375462 J-0.131404
G01 X260.460220 Y185.397030 Z-0.125000
G00 Z5.000000

(End cutting path id: path41557)


(Start cutting path id: path41557)
(Change tool to Default tool)

G00 Z5.000000
G00 X261.577220 Y187.383210

G01 Z-0.125000 F100.0(Penetrate)
G02 X262.372075 Y187.656807 Z-0.125000 I0.586654 J-0.412944 F400.000000
G02 X262.575005 Y187.383210 Z-0.125000 I-0.082971 J-0.273597
G02 X262.372075 Y187.109613 Z-0.125000 I-0.285901 J0.000000
G02 X261.577220 Y187.383210 Z-0.125000 I-0.208201 J0.686541
G01 X261.577220 Y187.383210 Z-0.125000
G00 Z5.000000

(End cutting path id: path41557)


(Start cutting path id: path41557)
(Change tool to Default tool)

G00 Z5.000000
G00 X263.142830 Y187.391210

G01 Z-0.125000 F100.0(Penetrate)
G02 X270.919497 Y189.467713 Z-0.125000 I6.039937 J-7.019671 F400.000000
G03 X276.723350 Y192.515440 Z-0.125000 I0.987148 J5.170217
G02 X275.569374 Y190.750413 Z-0.125000 I-1.631215 J-0.193259
G02 X272.399276 Y190.395897 Z-0.125000 I-2.540603 J8.367362
G02 X267.963321 Y191.195451 Z-0.125000 I1.529403 J21.190405
G02 X267.909850 Y191.379150 Z-0.125000 I0.031860 J0.108906
G03 X273.817624 Y193.455891 Z-0.125000 I-2.847070 J17.540546
G03 X273.704570 Y194.057562 Z-0.125000 I-0.159377 J0.281510
G03 X269.451561 Y194.149092 Z-0.125000 I-2.499231 J-17.273389
G03 X263.369190 Y192.150400 Z-0.125000 I1.495162 J-14.804251
G02 X264.908591 Y190.601178 Z-0.125000 I-0.563263 J-2.099125
G02 X264.533180 Y189.736301 Z-0.125000 I-0.738818 J-0.193221
G02 X261.492360 Y188.632413 Z-0.125000 I-5.229485 J9.665244
G02 X261.114370 Y188.806580 Z-0.125000 I-0.070128 J0.345058
G03 X261.525442 Y186.510464 Z-0.125000 I1.138788 J-0.980978
G03 X263.142830 Y187.391210 Z-0.125000 I0.528446 J0.955015
G01 X263.142830 Y187.391210 Z-0.125000
G00 Z5.000000

(End cutting path id: path41557)


(Start cutting path id: path41557)
(Change tool to Default tool)

G00 Z5.000000
G00 X264.074600 Y185.105350

G01 Z-0.125000 F100.0(Penetrate)
G03 X264.059922 Y186.340675 Z-0.125000 I-1.165452 J0.603902 F400.000000
G03 X263.736264 Y186.372456 Z-0.125000 I-0.172694 J-0.094756
G03 X263.396781 Y185.501300 Z-0.125000 I1.118669 J-0.937662
G03 X264.074600 Y185.105350 Z-0.125000 I0.442761 J-0.020194
G01 X264.074600 Y185.105350 Z-0.125000
G00 Z5.000000

(End cutting path id: path41557)


(Start cutting path id: path41557)
(Change tool to Default tool)

G00 Z5.000000
G00 X265.944620 Y185.142720

G01 Z-0.125000 F100.0(Penetrate)
G03 X267.881011 Y186.430161 Z-0.125000 I-1.848666 J4.880455 F400.000000
G03 X267.791187 Y186.647587 Z-0.125000 I-0.093415 J0.088676
G03 X266.693638 Y186.425077 Z-0.125000 I-0.069114 J-2.477216
G03 X265.944620 Y185.142720 Z-0.125000 I0.534691 J-1.172238
G01 X265.944620 Y185.142720 Z-0.125000
G00 Z5.000000

(End cutting path id: path41557)


(Start cutting path id: path41557)
(Change tool to Default tool)

G00 Z5.000000
G00 X268.611690 Y182.696350

G01 Z-0.125000 F100.0(Penetrate)
G03 X267.898488 Y184.413389 Z-0.125000 I-1.623940 J0.332108 F400.000000
G03 X266.619878 Y184.887475 Z-0.125000 I-1.667258 J-2.535346
G03 X266.472896 Y184.644027 Z-0.125000 I-0.019898 J-0.154080
G03 X268.611690 Y182.696350 Z-0.125000 I5.439757 J3.825366
G01 X268.611690 Y182.696350 Z-0.125000
G00 Z5.000000

(End cutting path id: path41557)


(Start cutting path id: path41557)
(Change tool to Default tool)

G00 Z5.000000
G00 X270.774570 Y182.637010

G01 Z-0.125000 F100.0(Penetrate)
G02 X271.274007 Y186.839729 Z-0.125000 I16.159373 J0.210711 F400.000000
G03 X269.653800 Y189.187320 Z-0.125000 I-1.833604 J0.467420
G03 X268.703231 Y188.984311 Z-0.125000 I-0.442774 J-0.253730
G03 X268.794919 Y185.301402 Z-0.125000 I14.766630 J-1.474972
G03 X269.727448 Y182.484430 Z-0.125000 I8.654393 J1.302108
G03 X270.774570 Y182.637010 Z-0.125000 I0.496115 J0.264643
G01 X270.774570 Y182.637010 Z-0.125000
G00 Z5.000000

(End cutting path id: path41557)


(Start cutting path id: path41557)
(Change tool to Default tool)

G00 Z5.000000
G00 X271.477590 Y181.584190

G01 Z-0.125000 F100.0(Penetrate)
G02 X272.112022 Y181.920520 Z-0.125000 I0.486312 J-0.150806 F400.000000
G02 X272.421277 Y181.610571 Z-0.125000 I-0.134986 J-0.443940
G02 X272.292586 Y181.368319 Z-0.125000 I-0.186479 J-0.056245
G02 X271.477590 Y181.584190 Z-0.125000 I-0.235396 J0.757689
G01 X271.477590 Y181.584190 Z-0.125000
G00 Z5.000000

(End cutting path id: path41557)


(Start cutting path id: path41557)
(Change tool to Default tool)

G00 Z5.000000
G00 X273.686000 Y184.293710

G01 Z-0.125000 F100.0(Penetrate)
G03 X275.352725 Y183.994478 Z-0.125000 I0.922841 J0.348779 F400.000000
G03 X278.117764 Y188.399450 Z-0.125000 I-12.613808 J10.988101
G03 X278.974116 Y192.751690 Z-0.125000 I-9.772343 J4.183187
G03 X277.070800 Y194.087120 Z-0.125000 I-1.436176 J-0.022843
G02 X278.294454 Y191.083961 Z-0.125000 I-1.242820 J-2.257266
G02 X275.068450 Y186.632900 Z-0.125000 I-8.037212 J2.430556
G03 X273.868804 Y187.184708 Z-0.125000 I-0.838500 J-0.242985
G03 X273.297769 Y186.389187 Z-0.125000 I0.406429 J-0.894448
G03 X273.318360 Y184.306941 Z-0.125000 I9.372151 J-0.948543
G03 X273.686000 Y184.293710 Z-0.125000 I0.184864 J0.022411
G01 X273.686000 Y184.293710 Z-0.125000
G00 Z5.000000

(End cutting path id: path41557)


(Start cutting path id: path41557)
(Change tool to Default tool)

G00 Z5.000000
G00 X278.215500 Y183.844700

G01 Z-0.125000 F100.0(Penetrate)
G03 X277.783075 Y185.166342 Z-0.125000 I-1.229292 J0.329354 F400.000000
G03 X277.336586 Y185.072574 Z-0.125000 I-0.184771 J-0.230083
G03 X277.245705 Y184.071821 Z-0.125000 I1.173172 J-0.611042
G03 X278.215500 Y183.844700 Z-0.125000 I0.551298 J0.169967
G01 X278.215500 Y183.844700 Z-0.125000
G00 Z5.000000

(End cutting path id: path41557)


(Start cutting path id: path41557)
(Change tool to Default tool)

G00 Z5.000000
G00 X278.196610 Y182.021500

G01 Z-0.125000 F100.0(Penetrate)
G03 X276.737525 Y182.250079 Z-0.125000 I-0.973731 J-1.444436 F400.000000
G03 X276.431841 Y181.930442 Z-0.125000 I0.122855 J-0.423480
G03 X276.589354 Y181.699645 Z-0.125000 I0.182903 J-0.044321
G03 X278.196610 Y182.021500 Z-0.125000 I0.338303 J2.484632
G01 X278.196610 Y182.021500 Z-0.125000
G00 Z5.000000

(End cutting path id: path41557)


(Start cutting path id: path41557)
(Change tool to Default tool)

G00 Z5.000000
G00 X278.326670 Y179.660630

G01 Z-0.125000 F100.0(Penetrate)
G03 X273.808910 Y181.212591 Z-0.125000 I-4.885177 J-6.869169 F400.000000
G03 X270.956730 Y180.595510 Z-0.125000 I-0.250527 J-5.742047
G02 X275.742783 Y179.652827 Z-0.125000 I0.368998 J-10.747438
G03 X278.326670 Y179.660630 Z-0.125000 I1.283352 J2.848720
G01 X278.326670 Y179.660630 Z-0.125000
G00 Z5.000000

(End cutting path id: path41557)


(Start cutting path id: path41557)
(Change tool to Default tool)

G00 Z5.000000
G00 X282.680640 Y178.421210

G01 Z-0.125000 F100.0(Penetrate)
G03 X282.475788 Y178.623085 Z-0.125000 I-0.151000 J0.051648 F400.000000
G03 X282.230970 Y178.405827 Z-0.125000 I0.148286 J-0.413664
G03 X282.293004 Y178.270388 Z-0.125000 I0.085549 J-0.042743
G03 X282.680640 Y178.421210 Z-0.125000 I0.088075 J0.347186
G01 X282.680640 Y178.421210 Z-0.125000
G00 Z5.000000

(End cutting path id: path41557)


(Start cutting path id: path41557)
(Change tool to Default tool)

G00 Z5.000000
G00 X284.373950 Y179.011980

G01 Z-0.125000 F100.0(Penetrate)
G02 X281.880074 Y183.756004 Z-0.125000 I0.947670 J3.525691 F400.000000
G03 X280.913720 Y186.130640 Z-0.125000 I-1.818695 J0.643832
G03 X279.801308 Y181.456207 Z-0.125000 I16.093247 J-6.299420
G03 X284.374230 Y179.012030 Z-0.125000 I2.798392 J-0.264294
G01 X284.373950 Y179.011980 Z-0.125000
G00 Z5.000000

(End cutting path id: path41557)


(Start cutting path id: path41557)
(Change tool to Default tool)

G00 Z5.000000
G00 X288.278100 Y182.029210

G01 Z-0.125000 F100.0(Penetrate)
G03 X288.588626 Y183.000619 Z-0.125000 I-0.254702 J0.616756 F400.000000
G03 X287.603142 Y183.805776 Z-0.125000 I-1.685922 J-1.057832
G03 X285.866092 Y184.068156 Z-0.125000 I-1.484906 J-3.949472
G03 X285.286030 Y183.295870 Z-0.125000 I0.037860 J-0.632421
G02 X284.886372 Y185.819985 Z-0.125000 I2.348109 J1.665488
G02 X285.953586 Y189.043801 Z-0.125000 I96.371558 J-30.114356
G03 X285.713367 Y189.326137 Z-0.125000 I-0.202693 J0.070904
G03 X284.537860 Y188.627790 Z-0.125000 I0.338788 J-1.908792
G02 X281.642842 Y191.196090 Z-0.125000 I9.745908 J13.901500
G02 X281.374765 Y192.257626 Z-0.125000 I0.876720 J0.786022
G02 X282.088601 Y193.289617 Z-0.125000 I1.691372 J-0.407057
G02 X285.286060 Y195.267310 Z-0.125000 I24.706026 J-36.370152
G02 X285.390868 Y197.306363 Z-0.125000 I4.789809 J0.776022
G02 X285.653466 Y197.331772 Z-0.125000 I0.136078 J-0.036685
G03 X286.699643 Y195.981551 Z-0.125000 I3.803882 J1.866908
G03 X288.104500 Y196.422440 Z-0.125000 I0.564822 J0.658919
G03 X292.888460 Y201.919916 Z-0.125000 I-3.519323 J7.892814
G02 X295.267030 Y201.879950 Z-0.125000 I1.183882 J-0.341527
G03 X290.273534 Y194.988070 Z-0.125000 I8.199037 J-11.195545
G02 X288.024380 Y192.127430 Z-0.125000 I-5.031301 J1.641310
G01 X288.116768 Y192.094798 Z-0.125000
G02 X287.744730 Y190.881677 Z-0.125000 I-93.023135 J27.864628
G03 X287.330312 Y187.161563 Z-0.125000 I9.302116 J-2.919389
G03 X289.238110 Y186.502200 Z-0.125000 I1.099147 J0.090579
G03 X290.097949 Y186.047012 Z-0.125000 I0.496445 J-0.101929
G03 X296.228580 Y194.794360 Z-0.125000 I-24.044036 J23.373425
G02 X295.411267 Y200.592953 Z-0.125000 I3.184109 J3.405698
G03 X297.743610 Y208.811860 Z-0.125000 I-14.130850 J8.450408
G03 X300.796870 Y212.954573 Z-0.125000 I-1.605873 J4.380073
G02 X303.038210 Y217.145300 Z-0.125000 I5.568920 J-0.283708
G02 X304.969292 Y216.615075 Z-0.125000 I0.608238 J-1.566413
G02 X304.952510 Y215.711232 Z-0.125000 I-0.563778 J-0.441609
G03 X303.853116 Y213.879432 Z-0.125000 I5.087651 J-4.299274
G03 X304.765760 Y212.835770 Z-0.125000 I0.723227 J-0.288432
G02 X306.968708 Y216.756274 Z-0.125000 I225.166266 J-123.942695
G02 X310.292540 Y220.565880 Z-0.125000 I11.219507 J-6.434072
G03 X312.542151 Y226.327657 Z-0.125000 I-34.804944 J16.909194
G02 X314.565700 Y230.083130 Z-0.125000 I10.180767 J-3.062761
G03 X315.020242 Y233.962868 Z-0.125000 I-18.738691 J4.161882
G03 X314.546860 Y234.268035 Z-0.125000 I-0.331909 J0.004879
G03 X313.241210 Y233.430497 Z-0.125000 I2.548432 J-5.409256
G02 X308.534770 Y229.990630 Z-0.125000 I-27.140410 J32.193997
G02 X304.946436 Y226.749361 Z-0.125000 I-8.919751 J6.267935
G03 X300.690440 Y222.715640 Z-0.125000 I5.850441 J-10.434945
G02 X301.120763 Y225.866442 Z-0.125000 I1.558352 J1.391954
G03 X309.393455 Y231.423445 Z-0.125000 I-126.709988 J197.569002
G03 X315.333790 Y237.438083 Z-0.125000 I-13.661795 J19.433816
G03 X315.329270 Y245.208030 Z-0.125000 I-5.670177 J3.881676
G03 X310.995382 Y256.158178 Z-0.125000 I-31.387067 J-6.089768
G02 X304.405670 Y266.668020 Z-0.125000 I2556.631088 J1610.338593
G03 X302.668379 Y268.858373 Z-0.125000 I-10.091554 J-6.220025
G03 X302.483406 Y268.756106 Z-0.125000 I-0.077578 J-0.078099
G02 X302.709234 Y267.181810 Z-0.125000 I-9.846077 J-2.215735
G02 X301.804530 Y266.608620 Z-0.125000 I-0.609342 J-0.038807
G03 X304.303718 Y261.290497 Z-0.125000 I9.666265 J1.296251
G03 X305.919340 Y259.978590 Z-0.125000 I5.348842 J4.936356
G02 X301.815996 Y262.284709 Z-0.125000 I-0.379828 J4.127819
G02 X297.314057 Y272.327957 Z-0.125000 I147.135652 J71.984950
G03 X294.014367 Y279.105928 Z-0.125000 I-53.512088 J-21.858892
G03 X292.163470 Y278.831810 Z-0.125000 I-0.872087 J-0.497364
G02 X288.871401 Y271.322406 Z-0.125000 I-126.047659 J50.782082
G02 X288.717469 Y271.382760 Z-0.125000 I-0.074860 J0.035548
G02 X290.535628 Y276.864477 Z-0.125000 I169.432234 J-53.154385
G03 X293.315840 Y284.984350 Z-0.125000 I-610.319161 J213.506751
G02 X289.499512 Y283.188866 Z-0.125000 I-13.151256 J22.999619
G03 X284.233420 Y279.360770 Z-0.125000 I4.323377 J-11.483600
G03 X276.283538 Y271.878949 Z-0.125000 I5.596795 J-13.911453
G02 X267.271450 Y261.694950 Z-0.125000 I-22.129060 J10.503070
G02 X266.271836 Y262.068193 Z-0.125000 I-0.384349 J0.495840
G02 X266.445601 Y263.532149 Z-0.125000 I2.334586 J0.465185
G02 X268.344781 Y267.365124 Z-0.125000 I71.753156 J-33.165589
G03 X267.972390 Y267.899930 Z-0.125000 I-0.323869 J0.171539
G03 X265.063866 Y264.102373 Z-0.125000 I3.218837 J-5.477875
G03 X263.859650 Y256.649019 Z-0.125000 I33.940976 J-9.307697
G03 X263.745928 Y248.501612 Z-0.125000 I105.001299 J-5.540116
G02 X263.400370 Y241.720580 Z-0.125000 I-44.867454 J-1.112900
G03 X264.392795 Y240.686112 Z-0.125000 I0.683555 J-0.337505
G03 X267.306065 Y242.843600 Z-0.125000 I-3.360927 J7.583932
G03 X275.612921 Y252.753334 Z-0.125000 I-316.799571 J273.994420
G02 X280.074510 Y257.115140 Z-0.125000 I21.193150 J-17.215244
G02 X280.490595 Y257.204080 Z-0.125000 I0.252261 J-0.162399
G02 X280.552039 Y256.928274 Z-0.125000 I-0.110374 J-0.169336
G02 X274.991015 Y248.429007 Z-0.125000 I-175.258545 J108.601800
G02 X271.210770 Y245.109290 Z-0.125000 I-8.496689 J5.863205
G02 X267.744106 Y240.167035 Z-0.125000 I-58.340375 J37.234959
G03 X262.638370 Y233.277990 Z-0.125000 I194.162897 J-149.238132
G03 X259.017918 Y223.001899 Z-0.125000 I19.562742 J-12.668127
G02 X257.264630 Y215.021740 Z-0.125000 I-35.894818 J3.703619
G02 X254.960207 Y209.317338 Z-0.125000 I-16.455329 J3.329841
G03 X256.097760 Y201.534150 Z-0.125000 I5.066075 J-3.234291
G03 X262.475368 Y200.003451 Z-0.125000 I6.861175 J14.535464
G03 X264.388067 Y200.495914 Z-0.125000 I0.106732 J3.546100
G03 X265.742727 Y202.240757 Z-0.125000 I-1.529049 J2.585407
G01 X265.671470 Y202.275540 Z-0.125000
G02 X266.483828 Y202.292019 Z-0.125000 I0.733084 J-16.106655
G01 X266.483872 Y202.286625 Z-0.125000
G02 X262.402304 Y202.259031 Z-0.125000 I-2.984729 J139.609943
G02 X262.174930 Y202.788600 Z-0.125000 I0.002472 J0.314658
G03 X259.846128 Y206.308411 Z-0.125000 I-159.156098 J-102.771673
G02 X259.828925 Y206.750506 Z-0.125000 I0.346532 J0.234866
G02 X260.214565 Y206.917761 Z-0.125000 I0.304274 J-0.173352
G03 X263.921850 Y206.107930 Z-0.125000 I22.696010 J95.008252
G03 X264.462571 Y205.891412 Z-0.125000 I0.294741 J-0.047373
G03 X266.077709 Y208.694326 Z-0.125000 I-16.757295 J11.522952
G03 X267.971131 Y212.991258 Z-0.125000 I-75.501941 J35.835196
G03 X267.870980 Y213.038280 Z-0.125000 I-0.051299 J0.020904
G02 X268.460902 Y215.953296 Z-0.125000 I5.850398 J0.333236
G02 X270.586241 Y219.697471 Z-0.125000 I32.209251 J-15.807926
G02 X270.877125 Y219.590926 Z-0.125000 I0.133237 J-0.086593
G02 X269.772850 Y215.454580 Z-0.125000 I-15.779774 J1.997131
G03 X270.312806 Y213.394928 Z-0.125000 I1.056781 J-0.823559
G03 X271.976120 Y213.409250 Z-0.125000 I0.814936 J1.949085
G01 X272.023735 Y213.333100 Z-0.125000
G02 X270.815550 Y212.465100 Z-0.125000 I-5.926555 J6.974431
G02 X270.018797 Y207.492727 Z-0.125000 I-11.280020 J-0.742557
G02 X269.407267 Y207.279225 Z-0.125000 I-0.399280 J0.161102
G03 X268.635999 Y207.314329 Z-0.125000 I-0.420186 J-0.741595
G03 X267.307860 Y205.308300 Z-0.125000 I0.930627 J-2.058821
G03 X268.860786 Y204.555719 Z-0.125000 I0.994067 J0.072728
G03 X271.374852 Y206.935062 Z-0.125000 I-5.992793 J8.850000
G02 X274.263660 Y210.636852 Z-0.125000 I150.852985 J-114.744791
G02 X275.201170 Y210.325630 Z-0.125000 I0.411152 J-0.329131
G03 X278.136287 Y208.600475 Z-0.125000 I2.335272 J0.613720
G03 X280.981561 Y210.166185 Z-0.125000 I-1.617825 J6.308112
G03 X280.929716 Y210.786788 Z-0.125000 I-0.272630 J0.289692
G03 X279.263550 Y210.757310 Z-0.125000 I-0.811817 J-1.216748
G02 X278.165482 Y210.419616 Z-0.125000 I-0.724138 J0.400535
G02 X277.927852 Y210.981352 Z-0.125000 I0.213464 J0.421431
G02 X278.797035 Y211.824163 Z-0.125000 I1.207340 J-0.375522
G02 X281.862450 Y211.045750 Z-0.125000 I0.852029 J-3.069740
G02 X282.548853 Y213.780008 Z-0.125000 I2.790607 J0.752738
G02 X283.478747 Y213.858438 Z-0.125000 I0.508654 J-0.478998
G03 X285.148134 Y213.529989 Z-0.125000 I1.172192 J1.551160
G03 X287.369540 Y216.375790 Z-0.125000 I-0.763343 J2.885764
G03 X291.965282 Y218.683424 Z-0.125000 I-66.796501 J138.757908
G02 X296.641462 Y220.990648 Z-0.125000 I51.024481 J-97.521862
G02 X296.831510 Y220.750468 Z-0.125000 I0.066305 J-0.142814
G02 X294.727330 Y218.801400 Z-0.125000 I-7.208900 J5.672253
G02 X290.478476 Y213.936179 Z-0.125000 I-37.775668 J28.702032
G03 X286.849120 Y210.051150 Z-0.125000 I54.282139 J-54.347612
G03 X284.742505 Y205.303475 Z-0.125000 I13.122558 J-8.663884
G02 X283.710474 Y202.652884 Z-0.125000 I-11.544102 J2.968586
G02 X282.606658 Y202.344435 Z-0.125000 I-0.699489 J0.373908
G02 X279.250710 Y205.659900 Z-0.125000 I4.969021 J8.385889
G02 X279.332702 Y204.451472 Z-0.125000 I-0.414721 J-0.635135
G03 X275.768846 Y201.292661 Z-0.125000 I138.351962 J-159.682253
G03 X275.505267 Y200.413830 Z-0.125000 I0.596433 J-0.657825
G03 X276.524070 Y199.886190 Z-0.125000 I0.745216 J0.191506
G02 X277.560427 Y202.211803 Z-0.125000 I2.290598 J0.372968
G02 X279.262835 Y202.499310 Z-0.125000 I1.187774 J-1.849167
G02 X282.075022 Y201.234071 Z-0.125000 I-1.947919 J-8.087425
G02 X282.159460 Y200.593380 Z-0.125000 I-0.250428 J-0.358914
G02 X280.972081 Y198.639995 Z-0.125000 I-2.039823 J-0.097650
G02 X280.008386 Y198.792441 Z-0.125000 I-0.367388 J0.799787
G03 X278.685925 Y199.277481 Z-0.125000 I-1.246476 J-1.353152
G03 X276.847040 Y197.599310 Z-0.125000 I0.079953 J-1.934191
G02 X274.402245 Y196.703582 Z-0.125000 I-1.854048 J1.276161
G03 X267.705920 Y196.721390 Z-0.125000 I-3.381245 J-12.431200
G03 X268.443712 Y194.737192 Z-0.125000 I1.231676 J-0.671288
G02 X269.713620 Y193.142830 Z-0.125000 I-0.699803 J-1.860313
G02 X273.282756 Y195.052468 Z-0.125000 I2.860156 J-1.055467
G03 X280.168010 Y196.731380 Z-0.125000 I1.805786 J7.552173
G02 X281.108262 Y194.128189 Z-0.125000 I-0.032702 J-1.483213
G03 X280.317200 Y188.369740 Z-0.125000 I2.893810 J-3.331095
G02 X281.431369 Y186.751721 Z-0.125000 I-8.057692 J-6.741153
G03 X284.056360 Y182.848827 Z-0.125000 I24.860380 J13.886284
G03 X286.329674 Y181.198340 Z-0.125000 I4.141253 J3.313163
G03 X288.278100 Y182.029200 Z-0.125000 I0.539751 J1.434274
G01 X288.278100 Y182.029210 Z-0.125000
G00 Z5.000000

(End cutting path id: path41557)


(Start cutting path id: path41557)
(Change tool to Default tool)

G00 Z5.000000
G00 X291.235720 Y181.377090

G01 Z-0.125000 F100.0(Penetrate)
G03 X291.228692 Y181.993885 Z-0.125000 I-0.335236 J0.304617 F400.000000
G03 X290.930440 Y182.025052 Z-0.125000 I-0.167393 J-0.159217
G03 X290.766299 Y181.669832 Z-0.125000 I0.217096 J-0.315850
G03 X291.235720 Y181.377090 Z-0.125000 I0.348431 J0.035983
G01 X291.235720 Y181.377090 Z-0.125000
G00 Z5.000000

(End cutting path id: path41557)


(Start cutting path id: path41557)
(Change tool to Default tool)

G00 Z5.000000
G00 X292.841550 Y180.002510

G01 Z-0.125000 F100.0(Penetrate)
G03 X293.285332 Y180.756160 Z-0.125000 I-1.087612 J1.147918 F400.000000
G02 X294.103757 Y183.023555 Z-0.125000 I12.381015 J-3.187573
G02 X294.307834 Y182.988212 Z-0.125000 I0.097160 J-0.045838
G02 X294.274670 Y179.816990 Z-0.125000 I-14.599949 J-1.433100
G01 X293.501230 Y179.559180 Z-0.125000
G01 X292.841550 Y180.002510 Z-0.125000
G00 Z5.000000

(End cutting path id: path41557)


(Start cutting path id: path41557)
(Change tool to Default tool)

G00 Z5.000000
G00 X294.784720 Y179.047030

G01 Z-0.125000 F100.0(Penetrate)
G02 X295.889241 Y179.520098 Z-0.125000 I0.923695 J-0.630692 F400.000000
G02 X296.150489 Y179.204350 Z-0.125000 I-0.050402 J-0.307653
G02 X295.859365 Y178.767945 Z-0.125000 I-0.491804 J0.012773
G02 X294.784720 Y179.047030 Z-0.125000 I-0.362720 J0.811869
G01 X294.784720 Y179.047030 Z-0.125000
G00 Z5.000000

(End cutting path id: path41557)


(Start cutting path id: path41557)
(Change tool to Default tool)

G00 Z5.000000
G00 X298.312810 Y183.692650

G01 Z-0.125000 F100.0(Penetrate)
G02 X298.549170 Y183.957721 Z-0.125000 I0.178450 J0.078794 F400.000000
G02 X298.977610 Y183.681475 Z-0.125000 I-0.282372 J-0.908305
G02 X298.933561 Y183.550589 Z-0.125000 I-0.059437 J-0.052852
G02 X298.312810 Y183.692650 Z-0.125000 I-0.151179 J0.766653
G01 X298.312810 Y183.692650 Z-0.125000
G00 Z5.000000

(End cutting path id: path41557)


(Start cutting path id: path41557)
(Change tool to Default tool)

G00 Z5.000000
G00 X302.001460 Y181.891510

G01 Z-0.125000 F100.0(Penetrate)
G02 X302.304736 Y181.897821 Z-0.125000 I0.153421 J-0.082510 F400.000000
G02 X302.371034 Y181.565361 Z-0.125000 I-0.439466 J-0.260476
G02 X302.261251 Y181.508892 Z-0.125000 I-0.074898 J0.010660
G02 X302.001460 Y181.891510 Z-0.125000 I0.224448 J0.431902
G01 X302.001460 Y181.891510 Z-0.125000
G00 Z5.000000

(End cutting path id: path41557)


(Start cutting path id: path41557)
(Change tool to Default tool)

G00 Z5.000000
G00 X302.828770 Y178.772470

G01 Z-0.125000 F100.0(Penetrate)
G02 X302.840404 Y179.459224 Z-0.125000 I0.495179 J0.335087 F400.000000
G02 X303.086549 Y179.498384 Z-0.125000 I0.142697 J-0.103780
G02 X303.270889 Y179.133467 Z-0.125000 I-0.261255 J-0.360993
G02 X302.828770 Y178.772470 Z-0.125000 I-0.371107 J0.003268
G01 X302.828770 Y178.772470 Z-0.125000
G00 Z5.000000

(End cutting path id: path41557)


(Start cutting path id: path41557)
(Change tool to Default tool)

G00 Z5.000000
G00 X293.623160 Y185.330870

G01 Z-0.125000 F100.0(Penetrate)
G02 X294.487506 Y185.843104 Z-0.125000 I0.816204 J-0.391898 F400.000000
G02 X294.770971 Y185.600577 Z-0.125000 I-0.016291 J-0.305962
G02 X294.612314 Y185.246685 Z-0.125000 I-0.322014 J-0.068145
G02 X293.623160 Y185.330870 Z-0.125000 I-0.433607 J0.758478
G01 X293.623160 Y185.330870 Z-0.125000
G00 Z5.000000

(End cutting path id: path41557)


(Start cutting path id: path41557)
(Change tool to Default tool)

G00 Z5.000000
G00 X291.821660 Y189.982370

G01 Z-0.125000 F100.0(Penetrate)
G02 X292.468591 Y190.528662 Z-0.125000 I0.627553 J-0.086962 F400.000000
G02 X292.830249 Y190.280172 Z-0.125000 I-0.012408 J-0.405487
G02 X292.725209 Y189.934106 Z-0.125000 I-0.261292 J-0.109666
G02 X291.821660 Y189.982370 Z-0.125000 I-0.419187 J0.634206
G01 X291.821660 Y189.982370 Z-0.125000
G00 Z5.000000

(End cutting path id: path41557)


(Start cutting path id: path41557)
(Change tool to Default tool)

G00 Z5.000000
G00 X290.236190 Y191.600280

G01 Z-0.125000 F100.0(Penetrate)
G02 X290.190995 Y192.450052 Z-0.125000 I1.001941 J0.479376 F400.000000
G02 X290.359591 Y192.475624 Z-0.125000 I0.091126 J-0.032234
G02 X290.621831 Y191.835092 Z-0.125000 I-1.110460 J-0.828581
G02 X290.236190 Y191.600280 Z-0.125000 I-0.243958 J-0.033420
G01 X290.236190 Y191.600280 Z-0.125000
G00 Z5.000000

(End cutting path id: path41557)


(Start cutting path id: path41557)
(Change tool to Default tool)

G00 Z5.000000
G00 X292.804330 Y192.428680

G01 Z-0.125000 F100.0(Penetrate)
G02 X292.829656 Y196.423212 Z-0.125000 I3.718705 J1.973769 F400.000000
G02 X293.940475 Y196.936292 Z-0.125000 I0.901804 J-0.493405
G02 X294.659595 Y196.051413 Z-0.125000 I-0.183537 J-0.883802
G02 X292.804330 Y192.428680 Z-0.125000 I-4.475074 J0.005340
G01 X292.804330 Y192.428680 Z-0.125000
G00 Z5.000000

(End cutting path id: path41557)


(Start cutting path id: path41557)
(Change tool to Default tool)

G00 Z5.000000
G00 X292.285980 Y194.292570

G01 Z-0.125000 F100.0(Penetrate)
G03 X293.263224 Y195.035694 Z-0.125000 I-2.872524 J4.791630 F400.000000
G01 X293.227238 Y195.086700 Z-0.125000
G03 X292.196752 Y194.481376 Z-0.125000 I4.320932 J-8.535627
G03 X292.285980 Y194.292570 Z-0.125000 I0.059088 J-0.087563
G01 X292.285980 Y194.292570 Z-0.125000
G00 Z5.000000

(End cutting path id: path41557)


(Start cutting path id: path41557)
(Change tool to Default tool)

G00 Z5.000000
G00 X287.603320 Y197.881210

G01 Z-0.125000 F100.0(Penetrate)
G02 X287.860454 Y198.597957 Z-0.125000 I0.737220 J0.140018 F400.000000
G02 X288.084933 Y198.563680 Z-0.125000 I0.097054 J-0.116591
G02 X288.148818 Y198.121589 Z-0.125000 I-0.449997 J-0.290689
G02 X287.603320 Y197.881210 Z-0.125000 I-0.374307 J0.110280
G01 X287.603320 Y197.881210 Z-0.125000
G00 Z5.000000

(End cutting path id: path41557)


(Start cutting path id: path41557)
(Change tool to Default tool)

G00 Z5.000000
G00 X286.567260 Y200.069960

G01 Z-0.125000 F100.0(Penetrate)
G02 X286.932972 Y200.515883 Z-0.125000 I0.370200 J0.069317 F400.000000
G02 X287.285036 Y200.328312 Z-0.125000 I0.004945 J-0.414911
G02 X287.238999 Y200.065708 Z-0.125000 I-0.163010 J-0.106760
G02 X286.567260 Y200.069960 Z-0.125000 I-0.333074 J0.443761
G01 X286.567260 Y200.069960 Z-0.125000
G00 Z5.000000

(End cutting path id: path41557)


(Start cutting path id: path41557)
(Change tool to Default tool)

G00 Z5.000000
G00 X290.496730 Y201.089250

G01 Z-0.125000 F100.0(Penetrate)
G02 X290.733089 Y201.354320 Z-0.125000 I0.178449 J0.078793 F400.000000
G02 X291.161526 Y201.078075 Z-0.125000 I-0.282370 J-0.908298
G02 X291.117477 Y200.947189 Z-0.125000 I-0.059437 J-0.052852
G02 X290.496730 Y201.089250 Z-0.125000 I-0.151178 J0.766646
G01 X290.496730 Y201.089250 Z-0.125000
G00 Z5.000000

(End cutting path id: path41557)


(Start cutting path id: path41557)
(Change tool to Default tool)

G00 Z5.000000
G00 X294.144230 Y202.143720

G01 Z-0.125000 F100.0(Penetrate)
G03 X293.640074 Y202.404905 Z-0.125000 I-0.384730 J-0.125460 F400.000000
G03 X293.426371 Y202.161904 Z-0.125000 I0.091374 J-0.295825
G03 X293.554752 Y201.946516 Z-0.125000 I0.189750 J-0.032855
G03 X294.144230 Y202.143720 Z-0.125000 I0.164270 J0.488597
G01 X294.144230 Y202.143720 Z-0.125000
G00 Z5.000000

(End cutting path id: path41557)


(Start cutting path id: path41557)
(Change tool to Default tool)

G00 Z5.000000
G00 X286.126540 Y204.348690

G01 Z-0.125000 F100.0(Penetrate)
G02 X287.221429 Y204.275942 Z-0.125000 I0.461624 J-1.328024 F400.000000
G02 X287.309954 Y204.046928 Z-0.125000 I-0.082483 J-0.163500
G02 X287.064792 Y203.880537 Z-0.125000 I-0.241958 J0.092697
G02 X286.126540 Y204.348690 Z-0.125000 I0.014892 J1.204125
G01 X286.126540 Y204.348690 Z-0.125000
G00 Z5.000000

(End cutting path id: path41557)


(Start cutting path id: path41557)
(Change tool to Default tool)

G00 Z5.000000
G00 X283.241580 Y203.681270

G01 Z-0.125000 F100.0(Penetrate)
